X:1
T:Concerto No. 1
T:Concerto No. 1
T:Saint-Saens
T:in a minor
C:Saint-Saens
%%score 1 { ( 2 4 ) | ( 3 5 ) }
L:1/8
M:2/2
K:C
V:1 bass nm="Violoncello" snm="Vlc."
V:2 treble nm="Piano" snm="Pno."
V:4 treble 
V:3 bass 
V:5 bass 
V:1
"^Allegro non troppo" z2 E2- (3EDC (3B,CD | (3CB,A, (3^G,A,B, A,E, F,2- | F,2 E,2 z E,, F,,2- | %3
 F,,2 E,,2 z2 E2- | (3EDC (3B,CD (3CB,A, (3^G,A,B, | A,E, F,4 E,2 | z E,, F,,4 E,,2 | %7
[K:tenor] z2 A2- (3AGF (3EFG | (3FED (3^CDE DA,=CB, | z2 A2- (3AGF (3EFG | (3FED (3^CDE DA,=CB, | %11
 z2 c2- (3cBA (3^GAB | (3A^G^F (3EFG (3FE^D (3^CDE | ^DCA,^F,[K:bass] ^D,C,A,,^F,, | ^D,,6 D,,2 | %15
"^Poco animato" (3(E,,^G,,)G,, (3(G,,B,,)B,, (3(B,,E,)E, (3(E,F,)F, | %16
 (3(F,E,^D,) (3D,D,D, (3(F,E,D,) (3D,D,D, | (3(E,^G,)G, (3(G,B,)B,[K:tenor] (3(B,E)E (3(EF)F | %18
 (3(FE^D) (3DDD (3(FED) (3DDD | E z E,F, (F,E,)E,A, | (A,^G,)G,C (CB,)B,F | (FE)EA (A^G)Gc | %22
"^Rall." (cB)Be (e3 E) |"^A""^Tempo 1°" E8- | E6 ^D2- | D2 E2 E2 F2- | F2 E2 E4- | E8- | %28
 E2 ^D4 E2 | (E2 F4 E2) | A8- | A2 z2 z4 | c8- | c2 z2 z4 | z8 | z8 | z8 | z8 | z8 | z8 | z8 | z8 | %42
"^B" z2 B2- (3BA^G (3^FGA | (3^G^FE (3^DEF EB,^G,E, |[K:bass] ^D,C,A,,B,, C,A,,E,,^F,, | %45
 ^G,,A,,B,,C, E,^F,A,C | B,2[K:tenor] B2- (3BA^G (3^FGA | (3^G^FE (3^DEF EB,^G,E, | %48
[K:bass] F,C,A,,_B,, C,A,,F,,C,, | F,,A,,C,F, A,_B,=B,C | C2[K:tenor] c2- (3c_BA (3^GAB | %51
 A^FCA,[K:bass] ^F,C,A,,D,, | (3^D,,E,,F,, (3^F,,G,,^G,, (3A,,^A,,B,, (3C,^C,D, | %53
 (3^D,E,F, (3^F,G,^G, (3A,^A,B, C2- | C2 A,2- (3A,_B,=B, C2- | C2 A,2- (3A,_B,=B, C2- | %56
 CA,_B,=B, CA,_B,=B, | CA,_B,=B, CB,C^C |!p! D4 G,4 | A,4 _B,4 | A,2 _B,2 C2 D2 | C2 D2 E2 F2 | %62
 _G4 C4 | D4 _E4 |[K:tenor] D2 _E2 F2 G2 | F2 G2 A2 _B2 | _B4 E4 | F4 G4 | _B4 E4 | F4 G4 | %70
!pp! A8 |[K:treble] a8 | a8 | A8 | A6 C2 | ^D2 E2 A2 c2 | c8 |[K:bass] ^F,,8 | %78
!p! (3(G,,_B,,)B,, (3(B,,D,)D, (3(D,G,)G, (3(G,_B,)B, |!mp! (3(C_B,A,) (3A,A,A, (3CB,A, (3A,A,A, | %80
!mf! (3(G,_B,)B,[K:tenor] (3(B,D)D (3(DG)G (3G_BB | (3c_BA (3AAA (3cBA (3AAA | %82
 G z D,!f!G, G,^F,F,A, |"^Accel." (A,G,)G,C (C_B,)B,D | (D^C)CE (ED)DG | (G^F)FA (A2 G2) | %86
 z2 D,G, G,^F,F,A, | (A,G,)G,E EDDG | G^FFA (AG)Gc | (cB)Be e2 d2 |"^C" z8 | %91
[K:bass] .[D,B,].[B,F].[B,F].[D,B,] .[D,B,].[B,F].[B,F].[D,B,] | z8 | %93
 .[D,B,].[B,F].[B,F].[D,B,] .[D,B,].[B,F].[B,F].[D,B,] | %94
 .[D,B,].[B,^F].[B,F].[D,B,] .[D,B,].[B,G].[B,G].[D,B,] | %95
 .[D,B,].[B,_A].[B,A].[D,B,] .[D,B,].[B,G].[B,G].[D,B,] | %96
 [D,B,][B,^F][B,F][D,B,] [D,B,][B,G][B,G][D,B,] | [D,B,][B,A][B,A][D,B,] [D,B,][B,G][B,G][D,B,] | %98
[K:tenor] [E,C][CG][CG][E,C] [F,C][CA][CA][F,C] | [^F,D][DA][DA][F,D] [G,D][D_B][DB][G,D] | %100
 [^G,E][EB][EB][G,E] [A,E][Ec][Ec][A,E] | [A,F][Fc][Fc][A,F] [_B,F][Fd][Fd][B,F] | %102
!f! [_B,F][Fd][Fd][E^c] [Ec][Fd][Fd][E=c] | [Ec][D_B][DB][^CA] [CA][DB][DB][=CA] | %104
 [CA][_B,G][B,G][A,^F] [A,F][B,G][B,G][A,=F] | [A,F][G,E][G,E][G,E] [G,E][F,D][F,D][F,D] | %106
 [E,C]2[K:bass] G,,C, (^D,E,)C,E, | (^F,G,)E,G, (((A,_B,)))G,B, |[K:tenor] ^DECE ^FGEG | %109
 A_BGA Bcde ||[K:F]"^Allegro molto"[Q:1/2=70] f2 z2 z4 | z8 | z8 | z8 | z8 | z8 | z8 | z8 | z8 | %119
 z8 | z8 | z8 | z8 | z8 | z8 | z8 | z8 | z8 | z8 | z8 | z8 | z8 | z8 | z8 | z8 | z8 | z8 | z8 || %138
[K:C][K:bass]"^D""_Tempo 1°"[Q:1/2=55] z2!p! A2- (3AG^F (3EFG | (3^FED (3^CDE D^F, B,2- | %140
 B,2 A,2 z ^F,, B,,2- | B,,2 A,,2 z2 A2- | (3AG^F (3EFG (3FED (3^CDE | D^F, B,4 A,2 | %144
 z A,, E,4 D,2 | z2 z .G,, .A,,.B,,.C,.^C, | .D,2 z .G, .A,.B,.C.^C | .D2 z[K:tenor] .G .A.B.c.^c | %148
 .d2[K:bass] z .[B,,G,] .[B,,G,].[G,D].[G,D].[B,,G,] | .[B,,G,]2 z .G,, .A,,.B,,.C,.^C, | %150
 .D,2 z .G, .A,.B,.C.^C | .D2 z[K:tenor] .G .A.B.c.^c | %152
 .d2[K:bass] z .[B,,G,] .[B,,G,].[G,D].[G,D].[B,,G,] | .[C,G,]2 z C, D,E,F,^F, | G,2 z C DEF^F | %155
[K:tenor] G2 z G ABcd | e2 z [E,C] [E,C][CG][CG][E,C] | [E,B,^G]2 z[K:bass] E,, ^F,,^G,,A,,^A,, | %158
 B,,2 z E, ^F,^G,A,^A, | B,2 z[K:tenor] E ^F^GA^A | %160
 B2 z[K:bass] [B,,^G,] [B,,G,][G,E][G,E][B,,G,] | (3C,A,E (3EA,C, (3C,A,E (3EA,C, | %162
 (3C,A,E (3EA,C, (3C,A,E (3EA,C, | (3B,,G,E (3EG,B,, (3B,,G,E (3EG,B,, | %164
 (3B,,G,E (3EG,B,, (3B,,G,E (3EG,B,, | [A,,F,C]2 z2 z4 | z8 | z8 | z8 | z8 | z8 | z8 | z8 | %173
"^E" z A,_B,=B, C4- | CA,_B,=B, C4- | CA,_B,=B, CA,_B,=B, | CA,_B,=B, CB,C^C | D4 G,4 | A,4 _B,4 | %179
 A,2 _B,2 C2 D2 | C2 D2 E2 F2 |[K:tenor] _G4 C4 | D4 _E4 | D2 _E2 F2 G2 | F2 G2 A2 _B2 | _B4 _D4 | %186
 C4 _B,4 |[K:bass] _D,6 _E,D, | C,4 _B,,4 | F,,8- | F,,2 _B,,2 D,2 _E,2 | E,2 F,2 _B,2 D2 | G4 F4 | %193
 G,,8- | G,,2 _A,,2 =A,,2 _B,,2 | E,2 G,2 _B,2 E2 |[K:tenor] c4 _B4 | A8- | A4 _B4 | B4 c4 | %200
 G4 F2 E2 | _E8- | E2 F2 ^F2 G2 |!mf! C2 _D2 =D2 _E2 |!mp! A,2 _B,2!p! =B,2 C2 |!pp! C8 | %206
 F,4 !fermata!z4 ||[K:Bb][M:3/4] z6 | z6 | z6 | z6 | z6 | z6 | z6 | z6 | z6 | z6 | z6 | z6 | z6 | %220
 z6 | z6 | z6 | z6 | z6 | z6 | z6 | z6 | z6 | z6 | z6 | z6 | z6 | z6 | z6 | z6 | z6 | z6 | z6 | %239
 z6 |!pp! (F6 | B6) | (uA6 | D6) | (vE2 F2 G2) | uF6- | F6- | F4 (vB,2 | B6-) | B2 (AG FD) | F6- | %251
 F(uG AB FD) | (vC4 F,2) | uB,4 (B,2 | E4) (B,2 | E4) (B,2 | G4 FE) | (D2 B,2) (B,2 | E2 G2) (B,2 | %259
 E2 G2 B2) | (B2 C2 F2) | (F2 B,2) ^F2 | (GE B,G ^F2) | (GE B,G ^F2) | (G4 A2) | (B2 F2) ^F2 | %266
 (GB GE B,B) | (GB GE B,B) | G4 TA2 | B2 z2 uB,2 | (A,B, CA, C2) | (C2 B,2 !tenuto!B,2) | %272
 (A,B, CA, C2) | (C2 B,2 D2) | (CD EC G2) | (G2 D2 F2) | TE4- E(D/E/) | (D4 !tenuto!D2) | %278
 (vA4 ^F2) | (G4 D2) | (F3 E D2) | (E4 D2) | (^C2 A2 C2) | (=C3 B, A,2) | (B,A, CB, A,G,) | %285
 (F4 E2) | D6- | D6- | D4[K:bass] (uG,,A,, | B,,D, =E,G, B,D) | D6- | D6- | D4[K:tenor] (G,A, | %293
 B,D =E)(G Bd) |[K:treble] (d2- (3dA^F) (3(FAd) | (d2- (3dA^F) (3(FAd) | %296
"_accelerando" (3.d.A.^F (3.F.A.d (3.^c.^G.^E | (3.^E.^G.^c[Q:1/4=115] (3.=c.=G.=E (3.E.G.c | %298
 (3.=B.^F.^D (3.D.F.B[Q:1/4=120] (3._B.=F.=D | (3.D.F.B (3.A.=E.^C (3.C.E.A | %300
 (3.^G.^D.^B, (3.^B,.D.G (3.=G.=D.=B, | (3.=B,.D.G (3.^F.^C.^A, (3.A,.C.F | %302
 (3.=F.C.A, (3.A,.C.F (3.=E.=B,.^G, | (3.^G,.=B,.=E[Q:1/4=110] (3._E._B,.=G, (3.G,.B,.E | %304
[K:tenor] TD6 | TE6 | T=E6 |"^G" PTF6- | F6- | F6- | F6- | F6- | F6- | F6- | F6 | TB6- | B6- | %317
 B6- | B4 A2 | B6- | B6- | B4 A/B/c/B/ | %322
[Q:1/4=100] ^F/G/A/G/[Q:1/4=95] D/E/=F/E/[Q:1/4=85] =B,/C/[Q:1/4=80]D/C/ |[Q:1/4=110] F4 G=E | %324
 GF F2 B2 | E4 FD | FE E2 C2 | F4 G=E | GF FG AB | E4 FD | FE EC DE | F2 ^F2 G2- | G2 FE{/D} DC | %333
 F2 ^F2 G2- | G2 FE{/D} DC | (F2 _A4) | (G2 B4) | (A2 c4-) | c2 B2 G2 | (GF BA GF) | (ED GF ED) | %341
 (CB, ED CB,) | (A,G, ^F,G, B,G) | G6 | D6- | D4 C2 | E2 D2 C2 | B,6- | B,6- | B,6- | B,6- | %351
 B,4 B2 | EF _GE G2 | _G2 F2 F2 | E2{/F} ED E2 | D2 B,4 | F2 D4 | _D2 _G4 | F2 D4 | _D2 _G2 D2 | %360
 DE FD F2 | E2 B,2 B,2 | A,2{/B,} A,G, A,2 | B,2 z4 | z6 | z6 | z6 | z6 | z6 | z6 | z6 | z6 | %372
[K:bass] F,,6 | B,,6 | A,,6 | D,,6 | E,,2 F,,2 G,,2 | F,,6- | F,,6- | F,,6- | F,,6 || %381
[M:4/4]"^H" B,,2 z4 z2 | z8 | z8 | z8 | z8 | z8 | z8 ||[K:C] z8 | z8 | z8 | z8 | z8 | z8 | z8 | %395
 z8 | z8 | z8 |[K:tenor] z2!f! B2- (3BA^G(3^FGA | (3^G^FE (3^DEFEB,^G,E, | %400
[K:bass] ^D,C, A,,B,,C,A,,E,,^F,, | ^G,,A,, B,,C,E,^F,A,C | B,2[K:tenor] B2- (3BA^G(3^FGA | %403
 (3^G^FE (3^DEFEB,^G,E, | (3^F,=F,^F, (3A,^G,A,(3CB,C(3^D=D^D | (3^F=F^F (3A^GA(3cBc(3^d=d^d | %406
 e2 z2 z4 | z8 | z8 | z8 | z8 | z8 | z8 | z8 | z!f! E F4 E2 |[K:bass] z E, F,4 E,2 | %416
 z E,, F,,4 E,,2 | z2 E2!mf! F4- |!mp! F4!p![Q:1/4=40] !fermata!E4 || %419
"^un peu moins vite""^K"[Q:1/4=90] z4[K:tenor]!p! E A2 G | C F2 EA, D2 C | (3CB,A, B,2- B,B,CD | %422
 (3FE^D E2- E^F^GA | B2 E2 E A2 G | C F2 EA, D2 C | (3CB,A, B,2- B,B,^C^D | (3^FE^D E2- EFGA || %427
 B4- BAE^F | G^F E4 ^D2 | E8- | E8- | E4!pp! E A2 G | C F2 EG, D2 C | (3C_B,A, B,2- B,DCB, | %434
 _B,A, ^G,A,^C E2 G | G2 F2!mf! FCD^D | EB, C^CDE/D/=CB, | C2 F2- FCD^D | EB, C^CDE/D/=CB, | %439
[Q:1/4=95] C2 E2 D2 F2 | E2 G2!f! F2 A2 | (3A2 A,2 C2 (3E2 A2 B2 | c6[Q:1/4=100] B2 | A2 z2 z4 | %444
 z8 | z8 | z8 | z2 B,/^A,/B,/^C/^D/C/D/E/^F/=F/^F/G/ | A/^F/=F/E/ ^D/^F/A/B/c/B/c/B/d/c/B/A/ | %449
 G/B/A/G/ ^F/A/G/F/E/G/F/E/E/G/F/E/ | D/^F/E/D/ ^C/E/D/C/B,/E/D/C/^A,/C/B,/A,/ | B,2 z2 z4 | z8 | %453
 z8 | z8 | z2 ^C/=C/^C/^D/F/E/F/^F/^G/=G/^G/A/ | B/^G/=G/^F/ =F/^G/B/^c/d/c/d/c/e/d/c/B/ | %457
 A/^c/B/A/ ^G/B/A/G/^F/A/G/F/E/G/F/E/ | ^F/A/G/F/ E/G/F/E/D/F/E/D/^C/E/D/C/ | %459
 ^F/A,/B,/^C/ D/C/D/E/F/A,/B,/C/D/C/D/E/ | ^F/A,/B,/^C/ D/C/D/E/F/ z/ C/D/E/F/G/A/ | %461
[K:treble] _B/^C/C/B/ ^c/E/E/c/e/G/G/e/^d/^F/F/d/ | d/F/F/d/ ^c/E/E/c/_B/^C/C/B/G/_B,/B,/G/ | %463
[K:tenor] ^F/A,/B,/^C/ D/C/D/E/F/A,/B,/C/D/C/D/E/ | ^F/A,/B,/^C/ D/C/D/E/F/ z/ C/D/E/F/G/A/ | %465
[K:treble] B/^D/D/B/ ^d/^F/F/d/^f/A/A/f/=f/^G/G/f/ | e/G/G/e/ ^d/^F/F/d/B/^D/D/B/A/B,/B,/A/ | %467
 G2 z2 z4 | z8 | _A/B,/B,/A/ B/D/D/B/d/F/F/d/f/A/A/f/ | d/F/F/d/ B/D/D/B/_A/B,/B,/A/F/_A,/A,/F/ | %471
[K:tenor] E/G,/A,/B,/ C/B,/C/D/E/G,/A,/B,/C/B,/C/D/ | E/G,/A,/B,/ C/B,/C/D/E/ z/ C/D/E/F/G/A/ | %473
[K:treble] _B/^C/C/B/ ^c/E/E/c/e/G/G/e/g/B/B/g/ | e/G/G/e/ ^c/E/E/c/_B/D/D/B/A/^C/C/A/ | %475
 F z A2- A>EE>F |[K:tenor] F>^C C>DD>^G,G,>A, | A,>E, E,>F,F, z[K:bass] D,,2 | %478
 D,,/E,,/F,,/G,,/ A,,/B,,/^C,/D,/E,/F,/G,/A,/B,/B,/4^C/4D/4E/4F/4G/4 | A z A2- A>^DD>E | %480
 E>B, B,>CC>^G,G,>A, | A,>^D, D,>E,E, z C,,2- | %482
 C,,/D,,/E,,/^F,,/4^G,,/4 A,,/B,,/C,/D,/E,/^F,/^G,/4A,/B,/C/D/E/4^F/4^G/4 | %483
 A z[K:treble] [A,A]2- [A,A]>[^A,^A][A,A]>[B,B] | [B,B]>[Cc] [Cc]>[B,B][B,B]>[^A,^A][A,A]>[=A,=A] | %485
 [A,A]3 [^F^f] [Ff]4 | %486
 [^F^f]/[Ff]/[=F=f]/[Ff]/ [Ee]/[Ee]/[^D^d]/[Dd]/[=D=d]/[Dd]/[Cc]/[Cc]/[B,B]/[B,B]/[A,A]/[A,A]/ | %487
"^N" [^G,^G] z z2 z4 | z8 |[K:bass] z8 | z8 | z8 | z8 | z8 | z8 | z8 | z8 | %497
 z!p! C,,/D,,/ E,,/F,,/G,, z C,,/D,,/E,,/F,,/G,, | z C,,/D,,/ E,,/F,,/G,, z C,,/D,,/E,,/F,,/G,, | %499
 z8 | z8 | z8 | z8 |"^O"!mf! C,,2 F,,2 A,,2 C,2 | _D,2 G,2 F,2 E,2 | F,2 A,,2 C,2 _D,2 | %506
 C,4- C, z z2 | C,,2 F,,2 A,,2 C,2 | _D,2 G,2 F,2 E,2 | F,2 A,,2 C,2{/_E,} _D,2 | C,4 C, z z2 | %511
 _E,,4 D,,4 | (3D,,2 ^F,,2 A,,2 (3D,2 ^F,2 A,2 | C4 _B,4- | B,2 z2 z4 | F,,4 E,,4- | %516
 (3E,,2 ^G,,2 B,,2 E,^G,B,D | D4 C4 | z4 A,,4 | G,,4 ^F,,4- | F,,2 G,,2 D,,2 G,,2 | F,,4 E,,4- | %522
 E,,2 F,,2 C,,2 F,,2 | E,,4 D,,4- | D,,4 _D,,4 | C,,4- (3C,,2 D,,2 E,,2 | %526
 (3F,,2 G,,2 A,,2 (3_B,,2 =B,,2 C,2 | _D,4- (3D,2 _E,2 =E,2 | (3F,2 _G,2 _A,2 (3_B,2 C2 _D2 | %529
[K:tenor]"_Rit. poco a poco ad lib." (3D2 E2 ^F2 (3G2 A2 B2 | %530
[K:treble]!mf! (3^c2 d2 e2 (3^f2 g2 a2 | (3_b2 c'2 d'2!mp! (3_e'2 f'2 ^f'2 | %532
[K:treble+8] (3g2 a2 _b2 (3c'2 d'2 e'2 | f'2 z2 z4 | z8 | z8 | z8 | z8 | z8 | z8 | z8 | %541
[K:tenor]!f! ^G/B,/^C/^D/ E/D/E/^F/G/B,/C/D/E/D/E/F/ | ^G/B,/^C/^D/ E/D/E/^F/G/ z/ D/E/F/G/A/B/ | %543
[K:treble] c/^D/D/c/ ^d/^F/F/d/^f/A/A/f/=f/^G/G/f/ | e/G/G/e/ ^d/^F/F/d/c/^D/D/c/A/C/C/A/ | %545
[K:tenor] ^G/B,/^C/^D/ E/D/E/^F/G/B,/C/D/E/D/E/F/ | ^G/B,/^C/^D/ E/D/E/^F/G/ z/ D/E/F/G/A/B/ | %547
[K:treble] c/^D/D/c/ ^d/^F/F/d/^f/A/A/f/a/c/c/a/ | ^f/A/A/f/ ^d/^F/F/d/c/^D/D/c/A/C/C/A/ | %549
 ^G z E/^F/G/A/B/A/G/F/G/A/B/G/ | A/B/A/^G/ ^F/G/A/B/c/B/A/G/A/B/c/A/ | %551
 B/c/B/A/ ^G/A/B/c/d/c/B/A/B/c/d/B/ | c/d/c/B/ A/B/c/d/e/d/c/B/c/d/e/c/ | (3def (3Bcd(3cde(3ABc | %554
 (3Bcd (3^GAB(3ABc(3^FGA | (3^GAB B2- BFED | (3^GAB B2- BFED | (3d2 ^c2 =c2 (3B2 ^A2 =A2 | %558
 (3^G2 =G2 ^F2 !fermata!=F2 E2 | z4[K:tenor]!p! E A2 G | C F2 EA, D2 C | (3CB,A, B,2- B,B,CD | %562
 (3FE^D E2- E^F^GA | B2 E2 E A2 G | C F2 EA, D2 C | (3CB,A, B,2- B,B,^C^D | (3^FE^D E2- EFGA | %567
 B4- BAE^F | G^F E4 ^D2 | E8- | E8- | E4!pp! E A2 G | C F2 EG, D2 C | (3C_B,A, B,2- B,DCB, | %574
 _B,A, ^G,A,^C E2 G | G2 F2!mf! FCD^D | EB, C^CDE/D/=CB, | C2 F2- FCD^D | EB, C^CDE/D/=CB, | %579
 C2 E2 D2 F2 | E2 G2!f! F2 A2 | (3A2 A,2 C2 (3E2 A2 B2 | c6 B2 | A z z2 z4 | z8 | z8 | z8 | z8 | %588
 z8 | z8 | z8 |"^R" z4 ^C2 D2 | ^D2 E2 A2 ^G2 | G2 D2 B,2 ^C2 | D2 ED ^C2 B,2 | ^F4 E2 ^D2 | %596
 ^F2 E2 D2 ^C2 | E2 D2 A,2 B,2 | ^C4 E3 D | ^C2 z2 C2 D2 | ^D2 E2 A2 ^G2 | G2 D2 B,2 ^C2 | %602
 D2 ED ^C2 B,2 | ^F4 E2 ^D2 | ^F2 E2 D2 ^C2 | E2 D2 A,2 B,2 | ^C4 E3 D | ^C2 D4 ^D2- | D2 E4 ^E2- | %609
 E2 ^F4 A2- | A2 B,2 E2 D2 | ^C2 D4 ^D2- | D2 E4 ^E2- | E2 ^F4 A2- | A2 B,2 E2 D2 | ^C2 D4 ^D2- | %616
 D2 E4 ^E2- | E2 ^F4 A2- | A2 ^c4 c2 | (3^c2 B2 A2 (3^G2 ^F2 E2 | (3A2 ^G2 ^F2 (3E2 D2 ^C2 | %621
 (3^F2 E2 D2 (3^C2 B,2 A,2 | (3D2 ^C2 B,2 (3A,2 ^G,2 ^F,2 | B,B, ^CCDDEE | ^FF ^GGAABB | %625
[K:treble] ^GG AABB^cc | dd ee^ff^gg | a2 z2 z4 | z8 | z8 | z8 | z8 | z8 | z8 |] %634
V:2
 [Acea] z!p! [A,C]/E/[A,C]/E/ [A,C]/E/[A,C]/E/ [A,C]/E/[A,C]/E/ | %1
 [A,C]/E/[A,C]/E/ [A,C]/E/[A,C]/E/ [A,C]/E/[A,C]/E/ [A,C]/^D/[A,C]/D/ | %2
 [A,C]/^D/[A,C]/D/ [A,C]/E/[A,C]/E/ [A,C]/E/[A,C]/E/ [A,C]/D/[A,C]/D/ | %3
 [A,C]/^D/[A,C]/D/ [A,C]/E/[A,C]/E/ [Acea] z!p! [A,C]/E/[A,C]/E/ | %4
 [A,C]/E/[A,C]/E/ [A,C]/E/[A,C]/E/ [A,C]/E/[A,C]/E/ [A,C]/E/[A,C]/E/ | %5
 [A,C]/E/[A,C]/E/ [A,C]/^D/[A,C]/D/ [A,C]/D/[A,C]/D/ [A,C]/E/[A,C]/E/ | %6
 [A,C]/E/[A,C]/E/ [A,C]/^D/[A,C]/D/ [A,C]/D/[A,C]/D/ [A,C]/E/[A,C]/E/ | %7
 [A,D]/F/[A,D]/F/ [A,D]/F/[A,D]/F/ [A,D]/F/[A,D]/F/ [A,D]/F/[A,D]/F/ | %8
 D/F/D/F/ D/F/D/F/ D/F/D/F/ D/F/D/F/ | %9
 [A,D]/F/[A,D]/F/ [A,D]/F/[A,D]/F/ [A,D]/F/[A,D]/F/ [A,D]/F/[A,D]/F/ | %10
 D/F/D/F/ D/F/D/F/ D/F/D/F/ D/F/D/F/ | %11
 [A,C]/[^FA]/[A,C]/[FA]/ [A,C]/[FA]/[A,C]/[FA]/ [A,C]/[FA]/[A,C]/[FA]/ [A,C]/[FA]/[A,C]/[FA]/ | %12
 [A,C] z z2 z4 | z8 | z2 [^fac'^f']4 [CF]/A,/[CF]/A,/ | [^G,B,E] z z2 z4 | z2 [AB]4 [AB]2 | %17
 [^GB] z z2 z4 | z2 [ABab]4 [ABab]2 | [^GB^gb] z z2 z4 | z8 | z8 | z8 | %23
!p! !arpeggio![CE]2 e'2- (3e'd'c' (3bc'd' | (3c'ba (3^gab ae f2- | f2 e2 z4 | z6 e'2- | %27
 (3e'd'c' (3bc'd' (3c'ba (3^gab | ae f4 e2 | z8 | z2 [cfc'-]2 (3c'_ba (3gab | (3agf (3efg fcfe | %32
 z2 [cfc'-]2 (3c'_ba (3gab!p! |!mf! (3agf (3efg fcfe | %34
 z2 [A,CFAcfc']2- (3[A,CFAcfc'][_B_b][Aa] (3[Gg][Aa][Bb] | %35
 (3[Aa][Gg][Ff] (3[Ee][Ff][Gg] (3[Ff][Dd][Cc] (3[B,B][Cc][Dd] | (3c_BA (3GAB (3AGF (3EFG | %37
 FCA,_B, =B,CFE | ^D2 [Dc^fa]2 [EBe^g]2 E2 | ^C2 [C_Beg]2 [DAd^f]2 D2 | B,2 [B,_Adf]2 z2 [CGce]2 | %41
 z2 [debd']2 z2 [ceac']2 | [Be^gb]2 [^G,B,]/E/[G,B,]/E/ [G,B,]/E/[G,B,]/E/ [G,B,]/E/[G,B,]/E/ | %43
 [^G,B,]/E/[A,B,]/E/ [G,B,]/E/[A,B,]/E/ [G,B,]/E/[A,B,]/E/ [G,B,]/E/[A,B,]/E/ | %44
 [A,CE]2 z2 [^F^d]4 | [^F^d]8 | %46
 [^G,B,]/E/[G,B,]/E/ [G,B,]/E/[G,B,]/E/ [G,B,]/E/[G,B,]/E/ [G,B,]/E/[G,B,]/E/ | %47
 [^G,B,]/E/[G,B,]/E/ [G,B,]/E/[G,B,]/E/ [G,B,]/E/[G,B,]/E/ [G,B,]/E/[G,B,]/E/ | [A,CF]2 z2 [Ff]4 | %49
 [Af]8 | [A,C]/^F/[A,C]/F/ [A,C]/F/[A,C]/F/ [A,C]/F/[A,C]/F/ [A,C]/F/[A,C]/F/ | %51
 [A,C]/^F/[A,C]/F/ [A,C]/F/[A,C]/F/ [A,C]/F/[A,C]/F/ [A,C]/F/[A,C]/F/ | %52
 [A,C^F]2 c'2 (3c'ba (3^gab | a^fcA ^FCB,A, | [A,CE]2 z2 ^D2 E2 | [cac']2 z2 ^D2 E2 | %56
!pp! [cac']2 z2 z4 | z8 | E8 | E8 | F8 | F8 | [C_E]4 [E_G]4 | [DF]4 [C_E]4 | [DF]8 | [DF]8 | E8 | %67
 E8 | E8 | E8 | [EG]8 | [EG]8 | [D^F]8 | [CF]8 | [A,CE]8 | [A,CE]8 | z2 _e2 (3edc (3Bcd | %77
 (3c_BA (3^GAB A_EDC | _B,2 z2 z4 | z2 [C_E]4 [CE]2 | [_B,D]2 z2 z4 | z2 [^Fc_e]4 [Fce]2 | %82
 [G_Bd]2 z2 z4 | z8 | z8 | z8 | [Gdfg]2 z2 z4 | z8 | z8 | z8 | %90
 [FAc]/f/[FAc]/f/ [FAc]/f/[FAc]/f/ [FAc]/f/[FAc]/f/ [FAc]/f/[FAc]/f/ |!p! [FGBf]2 z2 z4 | %92
!f! [FAc]/f/[FAc]/f/ [FAc]/f/[FAc]/f/ [FAc]/f/[FAc]/f/ [FAc]/f/[FAc]/f/ |!p! [FGBf]2 z2 z4 | %94
 [FB^f]2 z2 [FBg]2 z2 | [FB_a]2 z2 [FBg]2 z2 | [FB^f]2 z2 [FBg]2 z2 | (3c_BA (3GAB A2 z2 | %98
 (3dc_B (3ABc B2 z2 | (3dc_B (3ABc B2 z2 | (3edc (3ccd c2 z2 | (3f_ed (3cde d2 z2 | [Gdf]2 z2 z4 | %103
 z8 | z8 | z8 | [G_Be]2 z2 z4 | z8 |!f! !arpeggio![cec']2 z2 z4 | z8 ||[K:F] [Acf]6 [cgc']2 | %111
 [cfa]2 b2 ^g2 a2 | ^f2 g2 e2 =f2 | [DFG]3 [FG] [EGc]3 [EGc] | [FA]2 [FAcf]4 [gc']c | %115
 [fa]c[fb]B [e^g]=B[ea]A | [d^f]A[dg]G [ce]G[c=f]F | [DFG]3 [FG] [EGc]3 [EGc] | ABcd cdeg | %119
 fgab bgeB | ABcd cdeg | fgab bgeB | A2 [Aa]2 [cc']2 [^c^c']2 | [dfd']2 [Ff]2 [^G^g]2 [Aa]2 | %124
 [Bdb]2 [Dd]2 [Ff]2 [^G^f]2 | [GBg]2 G2 B2 d2 | d2 _d4 c2 | c2 B4 A2 | A2 D4 F2 | F2 F4 E2 | %130
 [A,CF]8 | [G,CG]8 | [CFA]8 | [B,FB]8 | [=B,F_A=B]8- | [B,FAB]8 | [f=b]8- | [fb]8 || %138
[K:C]!p! [Ad^fa]2!pp! [A,D]/^F/[A,D]/F/ [A,D]/F/[A,D]/F/ [A,D]/F/[A,D]/F/ | %139
 [A,D]/^F/[A,D]/F/ [A,D]/F/[A,D]/F/ [A,D]/F/[A,D]/F/ [A,D]/F/[A,D]/F/ | %140
 [A,D]/^F/[A,D]/F/ [A,D]/F/[A,D]/F/ [A,D]/F/[A,D]/F/ [A,D]/F/[A,D]/F/ | %141
 [A,D]/^F/[A,D]/F/ [A,D]/G/[A,D]/F/ [A,D]/F/[A,D]/F/ [A,D]/F/[A,D]/F/ | %142
 [d^fd']2 [A,D]/^F/[A,D]/F/ [A,D]/F/[A,D]/F/ [A,D]/F/[A,D]/F/ | %143
 [A,D]/^F/[A,D]/F/ [A,D]/F/[A,D]/F/ [A,D]/F/[A,D]/F/ z ^f | a2 z a d'2 z2 | %145
!pp! (3[dgd']c'b (3abc' b2 z2 | (3[DGd]cB (3ABc B2 z2 | (3[DGd]cB (3ABc B2 z2 | %148
 (3[G,B,D]CB, (3A,B,C B,2 z2 | (3[dgd']c'b (3abc' b2 z2 | (3bag (3^fga g2 z2 | %151
 (3[DGd]cB (3ABc B2 z2 | (3[DB]AG (3^FGA G2 z2 | (3[gc'g']f'e' (3d'e'f' e'2 z2 | %154
 (3[Gcg]fe (3def e2 z2 | (3[EGe]dc (3Bcd c2 z2 | (3EDC (3B,CD C2 z2 | (3[Beb]a^g (3^fga g2 z2 | %158
 (3BA^G (3^FGA G2 z2 | (3[Be^g]^fe (3^def e2 z2 | (3^G^FE (3^DEF E2 z2 | z2 ea a^ggb | %162
 baa^f' [^ff']2 [ee']2 | z2 ea aggc' | c'bb^f' f'2 e'2 | z2 [cfc'-]2 (3c'_ba (3gab | %166
 (3agf (3efg fc[G_df]e | z2 [cfc'-]2 (3c'_ba (3gab | (3agf (3efg fc[G_df]e | %169
 z2 [A,CFAcfc']2- (3[A,CFAcfc'][_B_b][Aa] (3[Gg][Aa][Bb] | %170
 (3[Aa][Gg][Ff] (3[Ee][Ff][Gg] (3[Ff][Dd][Cc] (3[B,B][Cc][Dd] | (3c_BA (3GAB (3AGF (3EFG | %172
 FCA,_B, =B,CFE | ^D2 z2 z4 | [^FAc^f] z z2 z4 | [EAce] z z2 z4 | z8 | [_B,E]8 | E8 | [A,CF]8 | %180
 [A,CF]8 | A,8 | A,8 | [_B,D]8- | [B,D]8 |!pp! [_DE]8- | [DE]8 | [_DE]8- | [DE]8 | %189
 z2 [DF]2 [DF]2 [DF]2 | [DF]2 z2 z4 | [_Bd]8- | [Bd]8 | z2 [CE]2 [CE]2 [CE]2 | [CE]2 z2 z4 | %195
 [_Bg]8 | [_Bg]8 | [C_E]8 | [C_E]8 | [C_E]8 | [C_E]8 | z8 | z8 | z8 | z8 | z8 | z8 || %207
[K:Bb][M:3/4] z2 z2 .[DFBf]2 | .[CFBe].[DFBf] .[EBg].[CBe] .[EFBg]2 | .[EFBg]2 .[DFBf]2 .[B,FBd]2 | %210
 .[CFBe]2{/f} .[CFBe].[B,FBd] .[CFBe]2 | .[CFBe]4 .[DFBf]2 | %212
 .[CFBe].[DFBf] .[EFBg].[CFBe] .[EFBg]2 | .[EFBg]2 .[DFBf]2 .[B,FBd]2 | %214
 .[CFBe]2{/f} .[Ge].d .[F,FAe]2 | .[B,FBd]4 .[DFBf]2 | .[CFBe].[DFBf] .[EBg].[CBe] .[EFBg]2 | %217
 .[EFBg]2 .[DFBf]2 .[B,FBd]2 | .[CFBe]2{/f} .[CFBe].[B,FBd] .[CFBe]2 | .[CFBe]4 .[DFBf]2 | %220
 .[CFBe].[DFBf] .[EFBg].[CFBe] .[EFBg]2 | .[EFBg]2 .[DFBf]2 .[B,FBd]2 | %222
 .[CFBe]2{/f} .[Ge].d .[F,FAe]2 | .[B,FBd]4 [B,FBd-]2 | [EGd]2 c2 [B,FBd-]2 | [EGd]2 c2 [B,Fd]2 | %226
 .[EGBc].[DGBd] .[CGBe]2 .[FAc]2 | .[B,FBd]2 .[df]2 [B,^FBd-]2 | [EGd]2 c2 [B,^FBd-]2 | %229
 [EGd]2 c2 [Bd]2 | .[EGBc].[DGBd] .[CGBe]2 .[F,EAc]2 | .[B,DB]2 x2 .[B,FB]2 | .[EGB]2 z2 .[B,FB]2 | %233
 .[EGB]2 z2 .[B,FB]2 | .[EGB]2 [EG]D [F,C]F | [B,F]D D2 .[B,^FB]2 | .[EGB]2 z2 .[B,^FB]2 | %237
 .[EGB]2 z2 .[B,^FB]2 | .[EGB]2 ED [F,C]E | [B,D]2 x2 x2 | z6 | z6 | z6 | z6 | z6 | %245
 z2 z2 .[DFBf]2 | .[CFBe].[DFBf] .[EBg].[CBe] .[EFBg]2 | .[EFBg]2 .[DFBf]2 .[B,FBd]2 | %248
 .[CFBe]2{/f} .[CFBe].[B,FBd] .[CFBe]2 | .[CFBe]4 .[DFBf]2 | %250
 .[CFBe].[DFBf] .[EFBg].[CFBe] .[EFBg]2 | .[EFBg]2 .[DFBf]2 .[B,FBd]2 | %252
 .[CFBe]2{/f} .[Ge].d .[F,FAe]2 | .[B,FBd]4 [B,FBd-]2 | [EGd]2 c2 [B,FBd-]2 | [EGd]2 c2 [B,Fd]2 | %256
 .[EGBc].[DGBd] .[CGBe]2 .[FAc]2 | .[B,FBd]2 .[df]2 [B,^FBd-]2 | [EGd]2 c2 [B,^FBd-]2 | %259
 [EGd]2 c2 [Bd]2 | .[EGBc].[DGBd] .[CGBe]2 .[F,EAc]2 | .[B,DB]2 x2 .[B,FB]2 | .[EGB]2 z2 .[B,FB]2 | %263
 .[EGB]2 z2 .[B,FB]2 | .[EGB]2 [EG]D [F,C]F | [B,F]D D2 .[B,^FB]2 | .[EGB]2 z2 .[B,^FB]2 | %267
 .[EGB]2 z2 .[B,^FB]2 | .[EGB]2 ED [F,C]E | [B,D]2 z4 | z2 [D^Fd]2 [A,DF]2 | z2 [DGd]2 [B,DG]2 | %272
 z2 [D^Fd]2 [A,DF]2 | z2 [DGd]2 [B,DG]2 | z2 [Gce]2 [CEG]2 | z2 [FGd]2 [DFG]2 | z2 [EGc]2 [CEG]2 | %277
 z2 [DAd]2 [A,DA]2 | z2 [^FAd]2 z2 | z2 [Gd]2 z2 | z2 [Gdg]2 z2 | z2 G4 | [^CG]6 | [CDA]6 | %284
 [B,D]2 [C^F]2 [DG]2 | [G,G]6 | [A,D^F]2 z2 [DAd^f]2 | [GBd=e]4 [DAd^f]2 | [GBd=e]6 | z6 | %290
 z2 z2 [DAd^f]2 | [GBd=e]4 [DAd^f]2 | [GBd=e]6 | z6 |{/D,} [DAd^f]6- | [DAdf]6- | [DAdf]2 z4 | z6 | %298
 z6 | z6 | z6 | z6 | z6 | z6 | z6 | z6 | z6 | z2 z2 [Bf]2 | [Be][Bf] [Bg][Be] [Bg]2 | %309
 [Bg]2 [Bf]2 [Bd]2 | [Be]2 [Be][Bd] [Be]2 | [Be]4 [Bf]2 | [Be][Bf] [Bg][Be] [Bg]2 | %313
 [Bg]2 [Bf]2 [Bd]2 | [Be]2 [Ge]d [Ae]2 | d4 [Bd]2 | [Bc]4 [Bd]2 | [Bc]4 [Bd]2 | %318
 [Bc][Bd] [Be]2 [Ac]2 | [Bd]2 [df]2 [dd'][Bb] | [dgbd'][cc'] [cc']2 [dd'][Bb] | %321
 [dgbd'][cc'] [cc']2 z2 | z6 | [B,D][CE] [DF]2 [B,D]2 | z2 [Bd][ce] [df]2 | %325
 [A,C][B,D] [CE]2 [A,C]2 | z2 [Ac][Bd] [ce]2 | [B,D][CE] [DF]2 [B,D]2 | z2 [Bd][ce] [df]2 | %329
 [A,C][B,D] [CE]2 [A,C]2 | z2 [cec'][Bdb] [Aca]2 | B6 | B2 A4 | B6 | B2 A4 | z F c=B ed | %336
 z G d^c f=e | z A =ed g^f | [Aa][Gg] [^F^f][Gg] [Aa][Bb] | b2 z4 | [Bd]6 | [GBd]6- | [GBd]6 | %343
 [egc']6- | [egc']6 | [df_c']6- | [dfc']2 z2 z2 | z2 z2 [db]2 | [d_a][db] [d_c'][da] [dc']2 | %349
 [_d_c']2 [db]2 [db]2 | [d_a][db] [d_c'][da] [dc']2 | [_d_c']2 [db]2 z2 | [Ac]2 z4 | [Bd]2 z4 | %354
 [Ac_g]2 z4 | [Bdf]2 z4 | [Fdf]2 z4 | [_G_d_g]2 z4 | [Fdf]2 z4 | [_G_d_g]2 z4 | [_CDF]2 z4 | %361
 [B,E_G]2 z4 | [CE_G]2 z4 | [DF]2 z4 |[K:bass] [^F,CE]6 | [G,^C=E]6 | [CE]6 | [F,B,D]4 z2 | %368
 z2 [^F,CE]4 | z2 [G,^CE]4 | z2 [CE]4 | [F,B,D]2 z4 | z6 | z6 | z6 | z6 | z6 | z6 | z6 | %379
 [A,C]4 z2 | z6 ||[M:4/4][K:treble] z2!p! f2- (3fed(3cde | (3dcB (3ABcBF G2 | %383
 G2 F z z [Fdf] [Gdg]2- | [Gdg]2 [Fdf] z z z a2 | (3agf (3=efg(3fed(3^cde | d[DF] [DG]4 [DF]2 | %387
 z F [Gdg]4 [Fdf]2 ||[K:C] z2 [Beb]2 (3ba^g(3^fga | (3^g^fe (3^defeB[^Fce]d | %390
 z2 [Beb]2 (3b[Aa][^G^g](3[^F^f][Gg][Aa] | %391
 (3[^G^g][^F^f][Ee] (3[^D^d][Ee][Ff](3[Ee][Cc][B,B](3[A,A][B,B][Cc] | (3BA^G (3^FGA(3GFE(3^DEF | %393
 EB, ^G,A,^A,B,E^D | D2 [D^GBf^gf']2 [CAceae']2 C2 | B,2 [B,E^Gded']2 [A,EAcec']2 A,2 | %396
 F2 [DABdab]2 F2 [^DAc^dac']2 | F2 [DABdab]2 F2 [^DAB^dab]2 | %398
"^J" [Be^gb]2 [^G,B,]/E/[G,B,]/E/[G,B,]/E/[G,B,]/E/[G,B,]/E/[G,B,]/E/ | %399
 [^G,B,]/E/[A,B,]/E/ [G,B,]/E/[A,B,]/E/[G,B,]/E/[A,B,]/E/[G,B,]/E/[A,B,]/E/ | z2 [E^F^d]6- | %401
 [EFd]8 | [^G,B,]/E/[G,B,]/E/ [G,B,]/E/[G,B,]/E/[G,B,]/E/[G,B,]/E/[G,B,]/E/[G,B,]/E/ | %403
 [^G,B,]/E/[G,B,]/E/ [G,B,]/E/[G,B,]/E/[G,B,]/E/[G,B,]/E/[G,B,]/E/[G,B,]/E/ | %404
 [A,C]2 z2 [^d^f^d']4- | [dfd']8 | E^F ^GBABce | de ^fbaecA | ^GA Becdea | ^ga bd'c'a^f^d | %410
!ff! e[e^gc'] [faf']4 [ege']2 |!f! z [e^ge'] [faf']4 [ege']2 |!mf! z [^GBe] [Acf]4 [GBe]2 | %413
!mp! z [^GBe] [Acf]4 [GBe]2 |!p! z8 | [FAd]2 z2 z4 | [EGc]2 z2 z4 | [DE^GB]2 z2 z4 | !fermata!z8 || %419
 z2[K:bass] [E,A,C]4 [E,A,C]2 | z2 [E,A,C]4 [E,A,C]2 | z2 [F,A,D]4 [F,^G,D]2 | %422
 z2 [E,A,C]4 [^F,C^D]2 |[K:treble] [E^Ge]B cd c2[K:bass] [A,CE]2 | z2 [E,A,C]4 [E,A,C]2 | %425
 z2 [^F,B,^D]4 [F,B,D]2 | z2 [G,B,E]2 z2 [A,B,^D]2 || [^G,B,]4 [E,A,]2 z2 | z2 B,2 C2 B,2 | %429
 [^G,B,]2[K:treble] z2!mf! [Ee] [Aa]2 [^G^g] | [Ee]2 z2!p! [Ee] [Aa]2 [Gg] | [Ee]2 z2 z4 | %432
 z2 [G,CE]4 [G,CG]2 | z2 [F,_B,F]4 [B,F_B]2 | [_B,_B]2 [A,A]4 [^CEG]2 | [EG]2 [DF]2 F4 | E8 | %437
 [A,CE] z [CF]4 [CF]2 | [^G,B,E]8 | %439
 [A,C]/E,/[A,C]/E,/ [A,E]/E,/[A,E]/E,/D/^G,/D/G,/[B,F]/G,/[B,F]/G,/ | %440
 E/A,/E/A,/ [EG]/A,/[EG]/A,/[DF]/A,/[DF]/A,/[B,D]/A,/[B,D]/A,/ | [A,CE]2 z2 z4 | %442
 z4!f! [E^Gde] z z2 | [Acea]7 [Acea] | [Gceg]7 [Gceg] | [^Fce^f]3 [Fcef] [Fcef]3 [Fcef] | %446
 [^Fce^f]3 [Fcef] [Fcef]3 [Fcef] | !wedge![B^fb] z ^F z B z z2 | z2 .[B,B] z .[^F^f] z .[Bf] z | %449
 .[Bg].[Bg] z [B^f] z [^Ae] z [G^ce] | z [^FBd] z [EG^c] z [DFB] z [^CF^A] | [Bd^fb]7 [Bdfb] | %452
 [Ad^fa]7 [Adfa] | [^Gd^f^g]3 [Gdfg] [Gdfg]3 [Gdfg] | [^Gd^f^g]3 [Gdfg] [Gdfg]3 [Gdfg] | %455
 [^c^g^c'] z [^G,^G] z [^Cc] z z2 | z2 [^C^c] z [^G^g] z [Gcg] z | %457
 [A^ca] z [Bd^g] z [Ac^f] z [^GB=f] z | [^FA^f] z [_Be_b] z [dfd'] z [^ce^c'] z | %459
 ^F [B,B]2 [A,A]=F [B,B]2 [A,A] | ^F [B,B]2 [A,A]F [Ee]2 [Dd] | [^C^c]2 [Ec]2 [Ge]2 [^F^d]2 | %462
 [Fd]2 [E^c]2 [^C_B]2 [_B,G]2 | ^F [B,B]2 [A,A]F [B,B]2 [A,A] | ^F [B,B]2 [A,A]F [Dd]2 [Cc] | %465
 [B,B]2 [^FA^d]2 [Ac^f]2 [^GB=f]2 | [G^Ae]2 [^FA^d]2 [^DFB]2 [D=A]2 | %467
 e/G/A/B/ c/B/c/d/e/G/A/B/c/B/c/d/ | e/G/A/B/ c/B/c/d/e/c/B/c/d/e/f/g/ | %469
 _a z [DFB]2 [F_Ad]2 [ABf]2 | [F_Ad]2 [DFB]2 [B,DA]2 [_A,B,F]2 | %471
 e/G/A/B/ c/B/c/d/e/G/A/B/c/B/c/d/ | e/G/A/B/ c/B/c/d/e/d/c/d/e/f/g/a/ | %473
 _b2 [EG^c]2 [G_Be]2 [Bcg]2 | z8 | %475
!pp! [DF]/A,/[DF]/A,/ [DF]/A,/[DF]/A,/[DF]/A,/[DF]/A,/[DF]/A,/[DF]/A,/ | %476
 [DF]/A,/[DF]/A,/ [DF]/A,/[DF]/A,/[DF]/A,/[DF]/A,/[DF]/A,/[DF]/A,/ | %477
 [DF]/A,/[DF]/A,/ [DF]/A,/[DF]/A,/[DF]/A,/[DF]/A,/[DF]/A,/[DF]/A,/ | %478
!f! [Adfa] z!pp! [DF]/A,/[DF]/A,/[DF]/A,/[DF]/A,/[DF]/A,/[DF]/A,/ | %479
!f! [Aea] z!pp! E/A,/E/A,/E/A,/E/A,/E/A,/E/A,/ | E/A,/E/A,/ E/A,/E/A,/E/A,/E/A,/E/A,/E/A,/ | %481
 E/A,/E/A,/ E/A,/E/A,/E/A,/E/A,/E/A,/E/A,/ |!f! [Aea] z E/A,/E/A,/E/A,/E/A,/E/A,/E/A,/ | %483
 [A^d^fa] z ^F/^D/F/D/F/D/F/D/F/D/F/D/ | ^F/^D/F/D/ F/D/F/D/F/D/F/D/F/D/F/D/ | %485
 ^F/^D/F/D/ F/D/F/D/F/D/F/D/F/D/F/D/ | [B^d^fb] z ^F/^D/F/D/F/D/F/D/F/D/F/D/ | %487
!ff! [e^gbe']7 [egbe'] | [d^gbd']7 [dgbd'] | [cg_bc']3 [cgbc'] [cgbc']3 [cgbc'] | %490
 [cg_bc']3 [cgbc'] [cgbc']3 [cgbc'] | [e^gbe']7 [E^GBe] |!mf! [DE^GBd]7 [DEGBd] | %493
!mp! [CG_Bc]3 [CGBc] [CGBc]3 [CGBc] | [CG_Bc]3!p! [CGBc] [CGBc]3 [CGBc] | %495
 z c/d/ e/f/g z c/d/e/f/g | z c/d/ e/f/g z c/d/e/f/g | z8 | z8 | z C DEFGA_B | ^FG A_B=Bcde | %501
 Bc eg_bgec | (3_B2 G2 E2 (3C2 B,2 _B,2 | A, [A,C]2 [A,C]2 [A,C]2 [A,C] | %504
 z [_B,_D]2 [B,D]2 [B,D]2 [B,D] | z [A,C]2 [A,C]2 [A,C]2 [^G,B,] | [CAc]3 [CAc] [CAc]3 [CAc] | %507
 [CAc] [A,C]2 [A,C]2 [A,C]2 [A,C] | z [_B,_D]2 [B,D]2 [B,D]2 [B,D] | %509
 z [A,C]2 [A,C]2 [A,C]2 [^G,B,] | [CAc]3 [CAc] [CAc]3 [CAc] | [CAc] [A,C]2 [A,C]2 [A,C]2 [A,C] | %512
 [_E_e]4 [Dd]4 | z [_B,D]2 [B,D] [D_Bd]3 [DBd] | [D_Bd]3 [DBd] [DBd]3 [DBd] | %515
 z [B,D]2 [B,D]2 [B,D]2 [B,D] | [Ff]4 [Ee]4 | z [CE]2 [CE] [Ece]3 [Ece] | [Ece]3 [Ece] [ce]4 | %519
 [c_e]4 [ce]4 | [cd]4 [Bd]4 | [_B_d]4 [Bd]4 | [_Bc]4 [Ac]4 | [_AB]8- | [FAB]8 | [FAc]2 z2 z4 | z8 | %527
 z2 _D2 D2 z2 | z8 |!pp! [D^FAd]8 | [D^FAd]8 |!ppp! [_EG_B_e]8 | [EG_Be]8 | %533
"_a Tempo"!p! [fa]/f'/[fa]/f'/ [fa]/f'/[fa]/f'/[fa]/f'/[fa]/f'/[fa]/f'/[fa]/f'/ | %534
 [_d_b]/_d'/[db]/d'/ [db]/d'/[db]/d'/[db]/d'/[db]/d'/[db]/d'/[db]/d'/ | %535
 [ca]/c'/[ca]/c'/ [ca]/c'/[ca]/c'/[ca]/c'/[ca]/c'/[ca]/c'/[ca]/c'/ | %536
 [_Bg]/_b/[Bg]/b/ [Bg]/b/[Bg]/b/[Bg]/b/[Bg]/b/[Bg]/b/[Bg]/b/ | %537
"_cresc." [CFAc]2 [Ff]2!mp! [Aa]2 [cc']2 | [^CFA^c]2 [Ff]2 [Aa]2!mf! [c^c']2 | %539
!f! z/ D/F/A/ d/f/a/d'/ z/ D/F/A/d/f/a/d'/ | z/ D/F/A/ d/f/a/d'/ z/ D/F/A/d/f/a/d'/ | %541
 [e^gbe'] z [B,E^G]2 z2 [B,EG]2 | z2 [B,E^G]2 z2 [B,EG]2 | [^D^Fc]2 [FA^d]2 [Ac^f]2 [^GB=f]2 | %544
 [G_Be]2 [^FA^d]2 [^DFc]2 [CDA]2 | [B,E^G]B, z2 z EB,G, | z ^G EB, z BGE | %547
 [^D^Fc]2 [FA^d]2 [Ac^f]2 [cda]2 | [Ac^f]2 [^FA^d]2 [^DFc]2 [CDA]2 | [B,E^G]2 [EG]2 [e^g]2 [EG]2 | %550
 z2 [^D^FA]2 [^d^fa]2 [DFA]2 | z2 [D^GB]2 [d^gb]2 [DGB]2 | z2 [CAc]2 [cac']2 [CAc]2 | %553
 z2 [DFdf]2 z2 [CEce]2 | z2 [B,DBd]2 z2 [Ac]2 | z4 [^G,B,DF]4 | z4 [^G,B,DF]4 | z8 | !fermata!z8 | %559
 z2[K:bass] [E,A,C]4 [E,A,C]2 | z2 [E,A,C]4 [E,A,C]2 | z2 [F,A,D]4 [F,^G,D]2 | %562
 z2 [E,A,C]4 [^F,C^D]2 |[K:treble] [E^Ge]B cd c2[K:bass] [A,CE]2 | z2 [E,A,C]4 [E,A,C]2 | %565
 z2 [^F,B,^D]4 [F,B,D]2 | z2 [G,B,E]2 z2 [A,B,^D]2 | [^G,B,]4 [E,A,]2 z2 |!p! z2 B,2 C2 B,2 | %569
 [^G,B,]2[K:treble] z2!mf! [Ee] [Aa]2 [^G^g] | [Ee]2 z2!p! [Ee] [Aa]2 [Gg] | [Ee]2 z2 z4 | %572
 z2 [G,CE]4 [G,CG]2 | z2 [F,_B,F]4 [B,F_B]2 | [_B,_B]2 [A,A]4 [^CEG]2 | [EG]2 [DF]2 F4 | E8 | %577
 [A,CE] z [CF]4 [CF]2 | [^G,B,E]8 | %579
 [A,C]/E,/[A,C]/E,/ [A,E]/E,/[A,E]/E,/D/^G,/D/G,/[B,F]/G,/[B,F]/G,/ | %580
 E/A,/E/A,/ [EG]/A,/[EG]/A,/[DF]/A,/[DF]/A,/[B,D]/A,/[B,D]/A,/ | [A,CE]2 z2 z4 | %582
 z4!f! [E^Gde] z z2 | [CEA]8 | [B,EB]8 | [EA^c]8 | [DAd]8 | [^DAc^d]8 | [^DAc^d]8 | [EAce]8 | %590
 [E^GBe]8 | [A,A][^CE] A,[CE]A,[CE]A,[CE] | A,[EA] A,[EA]A,[EA]A,[EA] | B,[DG] B,[DG]B,[DG]B,[DG] | %594
 z [DG] B,[DG]B,[DG]B,[DG] | z [^C^F] ^A,[CF] z [=CF]=A,[CF] | %596
 z[K:bass] B, ^G,B, z [_B,E]=G,[B,E] | z A, ^F,A, z [A,D]=F,[A,D] | %598
 z [A,^C] E,[A,C] z [^G,B,]E,[G,B,] | z4[K:treble] ^c2 d2 | ^d2 e2 a2 ^g2 | g2 d2 B2 ^c2 | %602
 [Gd]2 ed ^c2 B2 | ^f4 e2 ^d2 | ^f2 e2 d2 ^c2 | e2 d2 A2 B2 | ^c4 e3 d | ^c2 z2 z4 | z8 | z8 | z8 | %611
 ^c2 d4 ^d2- | d2 e4 ^e2- | e2 ^f4 a2- | a2 B2 e2 d2 | [^C^c]2 [Dd]4 [^D^d]2- | %616
 [Dd]2 [Ee]4 [^E^e]2- | [Ee]2 [^F^f]4 [A-fa-]2 | [A^fa]2 [^cfa^c']4 [cfac']2 | [^c^fa^c']2 z2 z4 | %620
 z8 | [A^c^fa]2 z2 z4 | z8 | [Bd^fb]2 z2 z4 | z8 | [e^gbe']2 z2 z4 | z8 | [^CEA]2 z2 [EA^c]2 z2 | %628
 [DAd]2 z2 [E^GBde]2 z2 | [EA^ce]2 z2 [Acea]2 z2 | [Ada]2 z2 [Be^gb]2 z2 | [^cea^c']2 z2 z4 | %632
 [a^c'e'a']2 z2 z4 | [A,^CEA]2 z2 z4 |] %634
V:3
!f! [A,,,A,,] z z2 z4 | z8 | z8 | z4!f! [A,,,A,,] z z2 | z4 z4 | z8 | z8 | [D,,D,]2 z2 z4 | %8
 z6 [A,,,A,,]2 | [D,,D,]2 z2 z4 | z6 [D,,D,]2 | %11
 ^D,,/D,/D,,/D,/ D,,/D,/D,,/D,/ D,,/D,/D,,/D,/ D,,/D,/D,,/D,/ | ^D,, z z2 z4 | z8 | %14
 z2 [^D,A,C]4 ^D,,/D,/D,,/D,/ | [E,,E,] z z2 z4 | z2 [A,B,]4 [A,B,]2 | [^G,B,] z z2 z4 | z2 z2 z4 | %19
 z8 | z8 | z8 | z8 | %23
 !arpeggio![A,,,A,,E,A,]2 [E,A,C]/E/[E,A,C]/E/ [E,A,C]/E/[E,A,C]/E/ [E,A,C]/E/[E,A,C]/E/ | %24
 [E,A,C]/E/[E,A,C]/E/ [E,A,C]/E/[E,A,C]/E/ A,/C/A,/C/ A,/C/A,/C/ | %25
 A,/C/A,/C/ A,/C/A,/C/ A,/C/A,/C/ A,/C/A,/C/ | %26
 A,/C/A,/C/ A,/C/A,/C/ [A,,,A,,]2 [E,A,C]/E/[E,A,C]/E/ | %27
 [E,A,C]/E/[E,A,C]/E/ [E,A,C]/E/[E,A,C]/E/ [E,A,C]/E/[E,A,C]/E/ [E,A,C]/E/[E,A,C]/E/ | %28
 A,/C/A,/C/ A,/C/A,/C/ A,/C/A,/C/ A,/C/A,/C/ | A,/C/A,/C/ A,/C/A,/C/ A,/C/A,/C/ A,/C/A,/C/ | %30
 A,,,/A,,/A,,,/A,,/ A,,,/A,,/A,,,/A,,/ A,,,2 [C,,C,]2 | [F,,F,]2 [A,,A,]4 [_B,,_B,]2 | %32
 A,,,/A,,/A,,,/A,,/ A,,,/A,,/A,,,/A,,/ A,,,2 [C,,C,]2 | [F,,F,]2 [A,,A,]4 [_B,,_B,]2 | %34
!f! [A,,,A,,]2 z2 z4 | z8 | (3C_B,A, (3G,A,B, (3A,G,F, (3E,F,G, | %37
 F,C,A,,_B,, =B,,C,[F,,F,][E,,E,] | [^D,,^D,]2 z2 z2 [E,,E,]2 | [^C,,^C,]2 z2 z2 [D,,D,]2 | %40
 [B,,,B,,]2 z2 [C,,C,]2 z2 | [^G,,^G,]2 z2 [A,,A,]2 z2 | %42
 .[E,,,E,,]2 z [E,,,E,,] [^G,,,^G,,]2 z [G,,,G,,] | [B,,,B,,]2 z [B,,,B,,] [E,,E,]2 z [E,,E,] | %44
 [A,,,A,,]2 z2 [A,C]4 | [A,C]8 | [E,,,E,,]2 z [E,,,E,,] [^G,,,^G,,]2 z [G,,,G,,] | %47
 [B,,,B,,]2 z [B,,,B,,] [E,,E,]2 z E, | _E,2 z2 [E,C]4 | [_E,C]8 | D,,2 z D,, ^F,,2 z F,, | %51
 A,,2 z A,, C,2 z2 | ^D,,2 z D,, ^F,,2 z F,, | A,,2 z A,, C,2 ^D,,2 | z E,, F,,4 E,,2 | %55
 z E,, F,,4 E,,2 | [A,C]2 z2 z4 | z8 | [C,,C,_B,]8 | [C,,C,]8 | [C,,C,A,C]8 | [C,,C,A,C]8 | %62
 [C,,C,A,]8 | [C,,C,A,]8 | [C,,C,F,_B,]8 | [C,,C,F,_B,]8 | [C,,C,]8 | [C,,C,]8 | [C,,C,]8 | %69
 [C,,C,]8 | [^C,,^C,A,]8 | [^C,,^C,A,]8 | [D,,D,A,]8 | [^D,,^D,A,]8 | [E,,E,]8 | [E,,E,]8 | %76
 [F,A,C_E]8 | [^F,A,C_E]4 z4 | [G,,D,G,]2 z2 z4 | z2 ^F,4 F,2 | G,2 z2 z4 | z8 | z8 | z8 | z8 | %85
 z8 | [B,,,B,,]2 z2 z4 | z8 | z8 | z8 | %90
 C,,/!f!C,/C,,/C,/ C,,/C,/C,,/C,/ C,,/C,/C,,/C,/ C,,/C,/C,,/C,/ | [D,,D,]2 z2 z4 | %92
 C,,/C,/C,,/C,/ C,,/C,/C,,/C,/ C,,/C,/C,,/C,/ C,,/C,/C,,/C,/ | [D,,D,]2 z2 z4 | %94
 z2 [D,F,B,]2 z2 [D,F,B,]2 | z2 [D,F,B,]2 z2 [D,F,B,]2 | z2 [D,F,B,]2 z2 [D,F,B,]2 | %97
 z2 [D,F,B,]2 z2 [D,F,B,]2 | z2 [E,G,C]2 z2 [F,A,C]2 | z2 [^F,A,D]2 z2 [G,_B,D]2 | %100
 z2 [^G,B,E]2 z2 [A,CE]2 | z2 [A,CF]2 z2 [_B,DF]2 | [_B,DF]2 z2 z4 | z8 | z8 | %105
 z2 [G,,,G,,]2 [A,,,A,,]2 [_B,,,_B,,]2 | [C,,C,]2 z2 z4 | z8 | !arpeggio![C,G,_B,E]2 z2 z4 | z8 || %110
[K:F] [F,F]6 [E,E]2 | [_E,_E]2 [D,D]2 [D,D]2 [^C,^C]2 | [C,C]2 [=B,,=B,]2 [_B,,_B,]2 [A,,A,]2 | %113
 [B,,B,]3 [B,,B,] [C,C]3 [C,C] | [F,,F,]2 [F,,F,]4 [E,,E,]2 | [_E,,_E,]2 [D,,D,]2 [D,D]2 [^C,^C]2 | %116
 [C,C]2 [=B,,=B,]2 [_B,,_B,]2 [A,,A,]2 | [B,,B,]3 [B,,,B,,] [C,,C,]3 [C,,C,] | %118
 [F,,F,]2 z2 [E,G,C]2 z2 | [D,F,B,D]2 z2 !arpeggio![C,G,B,E]2 z2 | [F,A,C]2 z2 [E,G,C]2 z2 | %121
 [D,F,B,D]2 z2 [C,G,B,E]2 z2 | F,G,A,B, A,G,F,E, | D,E,F,G, F,E,D,C, | B,,C,D,_E, D,C,B,,A,, | %125
 G,,A,,B,,C, B,,A,,G,,F,, | E,,2 z2 [^F,,,^F,,]2 z2 | [G,,,G,,]2 z2 [A,,,A,,]2 z2 | %128
 [B,,,B,,]2 z2 [=B,,,=B,,]2 z2 | [C,,C,]2 z2 [C,,C,]2 z2 | [F,,F,]8 | [E,,E,]8 | [_E,,_E,]8 | %133
 [D,,D,]8 | [_D,,_D,]8- | [D,,D,]8 |[K:treble] [^C^G=B]8- | [CGB]8 ||[K:C][K:bass] [D,,D,]2 z2 z4 | %139
 D,,2 z D,, ^F,,2 z F,, | A,,2 z A,, D,2 z2 | z8 | C,,2 z C,, A,,2 z A,, | C,2 z2 z4 | z7 [C,,C,] | %145
 [B,,,B,,]2 z2 z2 [G,,G,]2 | [D,,D,]2 z2 z2 [D,,D,]2 | [B,,,B,,]2 z2 z2 [B,,,B,,]2 | %148
 [G,,,G,,]2 z2 z2 [G,,,G,,]2 | [F,,,F,,]2 z2 z2 [F,,F,]2 | [D,,D,]2 z2 z2 [D,,D,]2 | %151
 [B,,,B,,]2 z2 z2 [B,,,B,,]2 | [F,,,F,,]2 z2 z2 [F,,,F,,]2 | [E,,,E,,]2 z2 z2 [G,,G,]2 | %154
 [E,,E,]2 z2 z2 [E,,E,]2 | [C,,C,]2 z2 z2 [C,,C,]2 | [G,,,G,,]2 z2 z2 [E,,,E,,]2 | %157
 [D,,,D,,]2 z2 z2 [B,,B,]2 | [^G,,^G,]2 z2 z2 [G,,G,]2 | [D,,D,]2 z2 z2 [B,,,B,,]2 | %160
 [^G,,,^G,,]2 z2 z2 [D,,D,]2 | [C,,C,]2 [C,C]2 z2 [A,,A,]2 | z2 [E,,E,]2 z2 [C,,C,]2 | %163
 [B,,,B,,]2 [B,,B,]2 z2 [G,,G,]2 | z2 [E,,E,]2 z2 [B,,,B,,]2 | %165
 A,,,/A,,/A,,,/A,,/ A,,,/A,,/A,,,/A,,/ [A,,,A,,]2 [C,,C,]2 | [F,,F,]2 [A,,A,]4 [_B,,_B,]2 | %167
 A,,,/A,,/A,,,/A,,/ A,,,/A,,/A,,,/A,,/ [A,,,A,,]2 [C,,C,]2 | [F,,F,]2 [A,,A,]4 [_B,,_B,]2 | %169
 [A,,,A,,]2 z2 z4 | z8 | (3C_B,A, (3G,A,B, (3A,G,F, (3E,F,G, | F,C,A,,_B,, =B,,C,F,E, | %173
 [^D,,^D,]2 z2 z4 | [^D,,^D,] z z2 z4 | [E,,E,] z z2 z4 | z8 | [C,,C,]8 | [C,,C,]8 | [C,,C,]8 | %180
 [C,,C,]8 | [F,,,F,,]8 | [F,,,F,,]8 | [F,,,F,,F,]8- | [F,,,F,,F,]8 | [F,,,F,,G,_B,]8- | %186
 [F,,,F,,G,B,]8 | [F,,,F,,G,_B,]8- | [F,,,F,,G,B,]8 | %189
 z2 [F,,,F,,F,_B,]2 [F,,,F,,F,B,]2 [F,,,F,,F,B,]2 | [F,,,F,,F,_B,]2 z2 z4 | [F,_B,D]8- | [F,B,D]8 | %193
 z2 [F,,,F,,G,_B,]2 [F,,,F,,G,B,]2 [F,,,F,,G,B,]2 | [F,,,F,,G,_B,]2 z2 z4 | [F,CE]8 | [F,CE]8 | %197
 [F,,,F,,F,A,]8 | [F,,,F,,F,A,]8 | [F,,,F,,F,A,]8 | [F,,,F,,F,A,]8 | z8 | z8 | z8 | z8 | z8 | z8 || %207
[K:Bb][M:3/4] z6 | z6 | z6 | z6 | z6 | z6 | z6 | z6 | z6 | z6 | z6 | z6 | z6 | z6 | z6 | z6 | z6 | %224
 z6 | z6 | z6 | z6 | z6 | z6 | z6 | z6 | z6 | z6 | z6 | z6 | z6 | z6 | z6 | z6 | z6 | z6 | z6 | %243
 z6 | z6 | z6 | z6 | z6 | z6 | z6 | z6 | z6 | z6 | z6 | z6 | z6 | z6 | z6 | z6 | z6 | z6 | z6 | %262
 z6 | z6 | z6 | z6 | z6 | z6 | z6 | z6 | [D,,D,]2 z4 | [G,,G,]2 z4 | [D,,D,]2 z4 | [G,,G,]2 z4 | %274
 [A,,A,]2 z4 | [=B,,=B,]2 z4 | [C,C]2 z4 | [^F,,^F,]2 z4 | [D,,D,]2 z4 | [G,,G,C]2 =B,2 B,2 | %280
 [G,,,G,,]2 z4 | [C,,C,]4 [D,,D,]2 | [=E,,=E,G,]6 | [^F,,^F,A,]6 | [G,,G,]2 [A,,A,]2 [B,,B,]2 | %285
 [C,,C,]6 | [D,,D,]2 z4 | z6 | z6 | z6 | .[D,,D,]2 z4 | z6 | z6 | z6 | z6 | z6 | z6 | z6 | z6 | %299
 z6 | z6 | z6 | z6 | z6 | z6 | z6 | z6 | z2[K:treble] z2 [DF]2 | [CF][DF] [EF][CF] [EF]2 | %309
 [EF]2 [DF]2 [B,F]2 | [CF]2 [CF][B,F] [CF]2 | [CF]4 [DF]2 | [CF][DF] [EF][CF] [EF]2 | %313
 [EF]2 [DF]2 [B,F]2 | [CF]2 z2 [F,CF]2 | [B,DF]2 z2 [B,F]2 | [EG]4 [B,F]2 | [EG]4 [B,F]2 | %318
 [EG][DG] [CG]2 F2 | [B,F]2 z2 [B,^F]2 | [EGB]4 [B,^F]2 | [EGB]4 z2 | z6 |[K:bass] [F,,F,]2 z4 | %324
 [F,DF]2 z4 | [F,,F,]2 z4 | [F,CE]2 z4 | [F,,F,]2 z4 | [F,DF]2 z4 | [F,,F,]2 z4 | [F,CE]2 z4 | %331
 D,4 _D,2 | C,2 F,,4 | D,4 _D,2 | C,2 F,,4 | D,2 [F,D]4 | =E,2 [G,=E]4 | ^F,2 [D,A,]4 | E,4 =E,2 | %339
 [F,B,D]6- | [F,B,D]6 | [F,B,D]6- | [F,B,D]6 | [F,,,F,,]6- | [F,,,F,,]6 | [F,,,F,,]6- | %346
 [F,,,F,,]2 z2 z2 | z2[K:treble] z2 [B,FB]2 | [B,FB][B,FB] [B,FB][B,FB] [B,FB]2 | %349
 [B,_GB]2 [B,GB]2 [B,GB]2 | [B,FB][B,FB] [B,FB][B,FB] [B,FB]2 | [B,_GB]2 [B,GB]2 z2 | [B,_G]2 z4 | %353
 [B,F]2 z4 | [B,E_G]2 z4 | [B,DF]2 z2[K:bass] [B,,,B,,]2 | %356
 [_A,,,_A,,][B,,,B,,] [_C,,_C,][A,,,A,,] [C,,C,]2 | [_C,,_C,]2 [B,,,B,,]2 [B,,,B,,]2 | %358
 [_A,,,_A,,][B,,,B,,] [_C,,_C,][A,,,A,,] [C,,C,]2 | [_C,,_C,]2 [B,,,B,,]2 z2 | [B,,_A,]2 z4 | %361
 [B,,_G,]2 z4 | [B,,_G,]2 z4 | [B,,F,]2 z2!pp! [B,,,B,,]2 | [A,,,A,,]4 [B,,,B,,]2 | %365
 [A,,,A,,]4 [B,,,B,,]2 | [A,,,A,,][B,,,B,,] [C,,C,]2 [A,,,A,,]2 | [B,,,B,,]2 [D,,D,]2 [B,,,B,,]2 | %368
 [A,,,A,,]2 z2 [B,,,B,,]2 | [A,,,A,,]2 z2 B,,2 | A,,B,, C,2 A,,2 | B,,2 z4 | z6 | z6 | z6 | z6 | %376
 z6 | z6 | z6 | [F,,E,]4 z2 | z6 || %381
[M:4/4] [B,,,B,,]2 [F,B,]/D/[F,B,]/D/[F,B,]/D/[F,B,]/D/[F,B,]/D/[F,B,]/D/ | %382
 [F,B,]/D/[F,B,]/D/ [F,B,]/D/[F,B,]/D/ [B,,,B,,]2 z [B,,,B,,] | %383
 [D,,D,]2 z [D,,D,] [F,,F,]2 z [F,,F,] | [B,,B,]2 z [B,,B,] [A,,,A,,]2 [F,A,]/D/[F,A,]/D/ | %385
 [F,A,]/D/[F,A,]/D/ [F,A,]/D/[F,A,]/D/[F,A,]/D/[F,A,]/D/[F,A,]/D/[F,A,]/D/ | %386
 [A,,,A,,]2 z [A,,,A,,] [D,,D,]2 z [D,,D,] | [F,,F,]2 z F, [A,,A,]2 z [A,,,A,,] || %388
[K:C] ^G,,,/^G,,/G,,,/G,,/ G,,,/G,,/G,,,/G,,/ [G,,,G,,]2 [B,,,B,,]2 | %389
 [E,,E,]2 [^G,,^G,]4 [A,,A,]2 | [^G,,,^G,,]2 [G,,E,^G,]2 z4 | z8 | %392
 (3B,A,^G, (3^F,G,A,(3G,F,E,(3^D,E,F, | E,B,, ^G,,A,,^A,,B,,[E,,E,][^D,,^D,] | %394
 [D,,D,]2 z2 z2 [C,,C,]2 | [B,,,B,,]2 z2 z2 [A,,,A,,]2 | [F,,F,]2 z2 [F,,F,]2 z2 | %397
 [F,,F,]2 z2 [F,,F,]2 z2 | .[E,,,E,,]2 z [E,,,E,,] [^G,,,^G,,]2 z [G,,,G,,] | %399
 [B,,,B,,]2 z [B,,,B,,] [E,,E,]2 z [E,,E,] | A,,2 [A,C]6- | [A,C]8 | E,,2 z E,, ^G,,2 z G,, | %403
 B,,2 z B,, E,2 z E, | A,,2 z2 [A,C^F]4- | [A,CF]8 | [E,,^G,,B,,E,]2 z2 [E,,A,,C,E,]2 z2 | %407
 [E,,B,,D,E,]2 z2 [E,,A,,C,E,]2 z2 | [E,^G,B,E]2 z2 [E,A,CE]2 z2 | [E,B,DE]2 z2 [E,A,CE]2 z2 | %410
 [E,^G,B,E]2 [C,,C,-]2 (3C,D,^D, [E,,E,]2 | z2 [C,,C,-]2 (3C,D,^D, [E,,E,]2 | %412
 z2 [C,,C,-]2 (3C,D,^D, [E,,E,]2 | z2 [C,,C,-]2 (3C,D,^D, [E,,E,]2 | [E,,E,]2 z2 z4 | %415
 [E,,E,]2 z2 z4 | [E,,E,]2 z2 z4 | [E,,E,]2 z2 z4 | !fermata!z8 ||!p! [A,,,A,,]4 z4 | %420
 [A,,,A,,]4 z4 | [A,,,A,,]4 z4 | [A,,,A,,]4 z4 | [A,,,A,,]2 [^G,B,E-]2 [A,CE]2 z2 | [A,,,A,,]4 z4 | %425
 [A,,,A,,]4 z4 | [G,,,G,,]4 [^F,,,^F,,]4 || ([E,,,E,,]4 [A,,,A,,]2) z2 | [B,,,B,,]8 | %429
 [E,,E,]2 z2 z4 | z8 | z8 | [C,,C,]6 [E,,E,]2 | [D,,D,]6 D,,2 | [^C,,^C,]4 [A,,,A,,]4 | %435
 [D,,D,]4 z4 | z4 [E,,,E,,]4 | [A,,,A,,]A,, C,F, A,4 | z4 [E,,,E,,]4 | %439
 [A,,,A,,] z [C,,C,] z [B,,,B,,] z [D,,D,] z | [C,,C,] z [^C,,^C,] z [D,,D,] z [F,,F,] z | %441
 [E,,E,]2 z2 z4 | z4 [E,,E,] z z2 | [A,,,A,,] z A,,/B,,/C,/D,/E,/D,/C,/B,,/A,, z | %444
 z2 A,,/B,,/C,/D,/E,/D,/C,/B,,/A,, z | z A,,/B,,/ C,/D,/E, z A,,/B,,/C,/D,/E, | %446
 z A,,/B,,/ C,/D,/E, z A,,/B,,/C,/D,/E, | !wedge![^D,,^D,] z ^F,2 B,2 [^F,,F,] z | %448
 .[^D,,^D,] z z2 z2 .[D,^D] z | [E,E] z [D,D] z [^C,^C] z [^A,,^A,] z | %450
 [B,,B,] z E, z ^F, z ^F,, z | [B,,D,^F,B,] z B,,/^C,/D,/E,/F,/E,/D,/C,/B,, z | %452
 z2 B,,/^C,/D,/E,/^F,/E,/D,/C,/B,, z | z B,,/^C,/ D,/E,/^F, z B,,/C,/D,/E,/F, | %454
 z B,,/^C,/ D,/E,/^F, z B,,/C,/D,/E,/F, | [F,,F,] z z2 z2 [^C,^C] z | [F,,F,] z z2 z2 [E,,E,] z | %457
 [^F,,^F,] z [B,,B,] z [^C,^C] z [^C,,C,] z | [D,,D,] z [G,,G,] z [A,,A,] z [A,,,A,,] z | %459
 D,,2 [A,,D,^F,]2 D,,2 [A,,D,F,]2 | D,,2 [A,,D,^F,]2 D,,2 [A,,D,F,]2 | %461
 D,,2 [G,_B,]2 [B,^C]2 [A,=C]2 | [^G,B,]2 [=G,_B,]2 [E,G,]2 [^C,E,]2 | %463
 D,,2 [A,,D,^F,]2 D,,2 [A,,D,F,]2 | D,,2 [A,,D,^F,]2 D,,2 [A,,D,F,]2 | [^D,,^D,]2 [B,,B,]6- | %466
 [B,,B,]8 | [C,,C,]2 [G,CE]2 [C,,C,]2 [G,CE]2 | [C,,C,]2 [G,CE]2 [C,,C,]2 [G,CE]2 | [C,,C,]8- | %470
 [C,,C,]8 | [C,,C,]2 [G,CE]2 [C,,C,]2 [G,CE]2 | [C,,C,]2 [G,CE]2 [_B,,,_B,,]2 [G,CD]2 | %473
 [A,,,A,,]2 [A,,A,]6- | [A,,A,]8 | [D,,D,] z z2 z4 | z8 | z8 | [D,,F,,A,,D,] z z2 z4 | %479
 [C,,E,,A,,C,] z z2 z4 | z8 | z8 | [C,,E,,A,,C,] z z2 z4 | [B,,,^D,,^F,,B,,] z z2 z4 | z8 | z8 | %486
 [B,,,^D,,^F,,B,,] z z2 z4 | [E,^G,B,E]2 E,,/^F,,/^G,,/A,,/B,,/A,,/G,,/F,,/E,,[E,G,B,E] | %488
 [E,^G,B,E]2 E,,/^F,,/^G,,/A,,/B,,/A,,/G,,/F,,/E,,[E,G,B,E] | %489
 [E,G,_B,E]E,,/F,,/ G,,/A,,/_B,, z E,,/F,,/G,,/A,,/B,, | %490
 z E,,/F,,/ G,,/A,,/_B,, z E,,/F,,/G,,/A,,/B,, | %491
 [E,^G,B,E]2 E,,/^F,,/^G,,/A,,/B,,/A,,/G,,/F,,/E,, z | %492
 [E,^G,B,E]2 E,,/^F,,/^G,,/A,,/B,,/A,,/G,,/F,,/E,, z | %493
 z E,,/F,,/ G,,/A,,/_B,, z E,,/F,,/G,,/A,,/B,, | z E,,/F,,/ G,,/A,,/_B,, z E,,/F,,/G,,/A,,/B,, | %495
 [G,_B,CE]3 [G,B,CE] [G,B,CE]3 [G,B,CE] | [G,_B,CE]3 [G,B,CE] [G,B,CE]3 [G,B,CE] | %497
 [E,G,_B,C]3 [E,G,B,C] [E,G,B,C]3 [E,G,B,C] | [E,G,_B,C]3 [E,G,B,C] [E,G,B,C]3 [E,G,B,C] | %499
 [C,,C,E,G,_B,C] z z2 z4 | z8 | z8 | z8 | [F,,,F,,]8 | z8 | z8 | %506
 z F,,,/G,,,/ A,,,/_B,,,/C,, z F,,,/G,,,/A,,,/B,,,/C,, | [F,,,F,,]8 | z8 | z8 | %510
 z F,,,/G,,,/ A,,,/_B,,,/C,, z F,,,/G,,,/A,,,/B,,,/C,, | [^F,,,^F,,]8 | %512
 z [A,C]2 [A,C]2 [A,C]2 [A,C] | z z z2 z G,,,/A,,,/_B,,,/C,,/D,, | %514
 z G,,,/A,,,/ _B,,,/C,,/D,, z G,,,/A,,,/B,,,/C,,/D,, | [^G,,,^G,,]8 | %516
 z [B,D]2 [B,D]2 [B,D]2 [B,D] | z4 z A,,,/B,,,/C,,/D,,/E,, | %518
 z A,,,/B,,,/ C,,/D,,/E,, z [CE]2 [CE] | z [C_E]2 [CE]2 [CE]2 [CE] | z [CD]2 [CD]2 [B,D]2 [B,D] | %521
 z [_B,_D]2 [B,D]2 [B,D]2 [B,D] | z [_B,C]2 [B,C]2 [A,C]2 [A,C] | %523
 z [_A,B,]2 [A,B,]2 [A,B,]2 [A,B,] | F,8 | [F,A,C]2 [C,,C,F,A,C]2 [C,,C,F,A,C]2 z2 | z8 | %527
 z2 [C,,C,F,_A,]2 [C,,C,F,A,]2 z2 | z8 | [C,,C,^F,A,]8 | [C,,C,^F,A,]8 | [C,,C,G,_B,]8 | %532
 [C,,C,G,_B,C]8 | [F,,,C,,]2 F,,2 A,,2 C,2 | _D,2 G,2 F,2 E,2 | C,2 F,2 A,2 C2 | _D2 G2 F2 E2 | %537
 [F,,,F,,][F,,F,] [F,,F,][C,,C,][C,,C,][A,,,A,,][A,,,A,,][F,,,F,,] | %538
 [F,,,F,,][F,,F,] [F,,F,][^C,,^C,][C,,C,][A,,,A,,][A,,,A,,][F,,,F,,] | %539
 [F,,,F,,]2 z2 [F,,A,,D,F,]2 z2 | [F,,A,,D,F,]2 z2 [F,,A,,D,F,]2 z2 | [E,,E,] z z2 [E,,E,]2 z2 | %542
 [E,,E,]2 z2 [E,,E,]2 z2 | [E,,,E,,]2 [E,,,E,,]2 z2 [E,,,E,,]2 | z2 [E,,,E,,]2 z2 [E,,,E,,]2 | %545
 [E,,E,]2 ^G,E, E,,2 E,2 | E,,2 [E,^G,]2 E,,2 [E,G,B,]2 | [E,,,E,,]2 [E,,,E,,]2 z2 [E,,,E,,]2 | %548
 z2 [E,,,E,,]2 z2 [E,,,E,,]2 | [E,,,E,,]2 z2 z2 E,2 | E,,2 E,2 z2 E,2 | E,,2 E,2 z2 E,2 | %552
 E,,2 E,2 z2 E,2 | E,,2 E,2 z2 E,2 | E,2 z2 E,2 [A,C]2 | z4 [E,,E,]4 | z4 [E,,E,]4 | z8 | %558
 !fermata!z8 |!p! [A,,,A,,]4 z4 | [A,,,A,,]4 z4 | [A,,,A,,]4 z4 | [A,,,A,,]4 z4 | %563
 [A,,,A,,]2 [^G,B,E-]2 [A,CE]2 z2 | [A,,,A,,]4 z4 | [A,,,A,,]4 z4 | [G,,,G,,]4 [^F,,,^F,,]4 | %567
 ([E,,,E,,]4 [A,,,A,,]2) z2 | [B,,,B,,]8 | [E,,E,]2 z2 z4 | z8 | z8 | [C,,C,]6 [E,,E,]2 | %573
 [D,,D,]6 D,,2 | [^C,,^C,]4 [A,,,A,,]4 | [D,,D,]4 z4 | z4 [E,,,E,,]4 | [A,,,A,,]A,, C,F, A,4 | %578
 z4 [E,,,E,,]4 | [A,,,A,,] z [C,,C,] z [B,,,B,,] z [D,,D,] z | %580
 [C,,C,] z [^C,,^C,] z [D,,D,] z [F,,F,] z | [E,,E,]2 z2 z4 | z4 [E,,E,] z z2 | [A,,A,]8 | %584
 [^G,,^G,]8 | [G,,G,]8 | [^F,,^F,]8 | [F,,F,]8 | [F,,F,]8 | %589
 E,,,/E,,/E,,,/E,,/ E,,,/E,,/E,,,/E,,/E,,,/E,,/E,,,/E,,/E,,,/E,,/E,,,/E,,/ | %590
 E,,,/E,,/E,,,/E,,/ E,,,/E,,/E,,,/E,,/E,,,/E,,/E,,,/E,,/E,,,/E,,/E,,,/E,,/ | [A,,,A,,]2 z2 z4 | %592
 [^C,,^C,]2 z2 z4 | [B,,,B,,]2 z2 z4 | [B,,B,]2 z2 z4 | [^A,,^A,]2 z2 [=A,,=A,]2 z2 | %596
 [^G,,^G,]2 z2 [=G,,=G,]2 z2 | [^F,,^F,]2 z2 [=F,,=F,]2 z2 | [E,,E,]2 z2 [E,,E,]2 z2 | %599
 A,,^C A,CA,CA,C | ^C,E [A,^C]E[A,C]E[A,C]E | B,,D B,DB,DB,D | B,,D B,DB,DB,D | ^A,^F ^CF=A,F=CF | %604
 ^G,E B,E=G,E_B,E | ^F,D A,D=F,DA,D | E,^C A,CE,B,^G,B, | A,2 A,^CA,CA,C | z ^C B,CB,CB,C | %609
 z ^C A,C z =CA,C | z B, A,B, z B,^G,B, | A,^C A,CA,CA,C | [^G,B,]^C [G,B,]C[G,B,]C[G,B,]C | %613
 [^F,A,]^C [F,A,]C[^D,A,]=C[D,A,]C | [E,A,]B, [E,A,]B,[E,^G,]B,[E,G,]B, | %615
 [A,,^C,]A, [A,,C,]A,[A,,C,]A,[A,,C,]A, | [^G,,B,,^C,]^G, [G,,B,,C,]G,[G,,B,,C,]G,[G,,B,,C,]G, | %617
 [^F,,A,,^C,]^F, [F,,A,,C,]F,[E,,A,,C,]E,[E,,A,,C,]E, | D,,D, D,,D,^D,,^D,D,,D, | [E,,E,]2 z2 z4 | %620
 z8 | [E,,A,,^C,E,]2 z2 z4 | z8 | [E,,B,,D,E,]2 z2 z4 | z8 | [E,,^G,,B,,E,]2 z2 z4 | z8 | %627
 [A,,A,]2 z2 [G,,G,]2 z2 | [F,,F,]2 z2 [E,,E,]2 z2 | [A,,,A,,]2 z2 [G,,,G,,]2 z2 | %630
 [F,,,F,,]2 z2 [E,,,E,,]2 z2 | [A,,,A,,]2 z2 z4 | [A,,,^C,,E,,A,,]2 z2 z4 | %633
 [A,,,^C,,E,,A,,]2 z2 z4 |] %634
V:4
 x8 | x8 | x8 | x8 | x8 | x8 | x8 | x8 | [A,A]6 x2 | x8 | [A,A]6 x2 | x8 | x8 | x8 | x8 | x8 | x8 | %17
 x8 | x8 | x8 | x8 | x8 | x8 | x8 | x8 | x8 | x8 | x8 | x8 | x8 | x8 | x6 [G_d]2 | x8 | x6 [G_d]2 | %34
 x8 | x8 | x8 | x8 | x8 | x8 | x8 | x8 | x8 | x8 | x8 | x8 | x8 | x8 | x8 | x8 | x8 | x8 | x8 | %53
 x8 | x4 [A,C]4 | x4 [A,C]4 | x8 | x8 | x8 | x8 | x8 | x8 | x8 | x8 | x8 | x8 | x8 | x8 | x8 | x8 | %70
 x8 | x8 | x8 | x8 | z2 e'2 (3e'd'c' (3bc'd' | (3c'ba (3^gab aefe | x8 | x8 | x8 | x8 | x8 | x8 | %82
 x8 | x8 | x8 | x8 | x8 | x8 | x8 | x8 | x8 | x8 | x8 | x8 | x8 | x8 | x8 | x8 | x8 | x8 | x8 | %101
 x8 | x8 | x8 | x8 | x8 | x8 | x8 | x8 | x8 ||[K:F] x8 | x8 | x8 | x8 | x8 | x8 | x8 | x8 | x8 | %119
 x8 | x8 | x8 | x8 | x8 | x8 | x8 | G2 z2 [_EA]2 z2 | D2 z2 [C^F]2 z2 | G,2 z2 _A,2 z2 | %129
 [G,C]2 z2 [G,C]2 z2 | x8 | x8 | x8 | x8 | x8 | x8 | x8 | x8 ||[K:C] x8 | x8 | x7 d | %141
 ^f2 z f a2 z2 | x8 | z2 z d ^f2 [A,D]/^F/[A,D]/F/ | %144
 [A,D]/^F/[A,D]/F/ [A,D]/F/[A,D]/F/ [A,D]/F/[A,D]/F/ [A,D]/F/[A,D]/F/ | x8 | x8 | x8 | x8 | x8 | %150
 x8 | x8 | x8 | x8 | x8 | x8 | x8 | x8 | x8 | x8 | x8 | x8 | x8 | x8 | x8 | x8 | x8 | x8 | x8 | %169
 x8 | x8 | x8 | x8 | x8 | x8 | x8 | x8 | x8 | C4 _D4 | x8 | x8 | [C_E]4 [E_G]4 | [DF]4 [C_E]4 | %183
 x8 | x8 | x8 | x8 | x8 | x8 | x8 | x8 | x8 | x8 | x8 | x8 | x8 | x8 | x8 | x8 | x8 | x8 | x8 | %202
 x8 | x8 | x8 | x8 | x8 ||[K:Bb][M:3/4] x6 | x6 | x6 | x6 | x6 | x6 | x6 | x6 | x6 | x6 | x6 | x6 | %219
 x6 | x6 | x6 | x6 | x6 | B4 z2 | B4 z2 | x6 | x6 | B4 z2 | B4 [B,^F]2 | x6 | .B2 z2 dB | %232
 dc c2 dB | dc c2 dB | dc cd ec | df f2 dB | dc c2 dB | dc c2 dB | dc cd ec | [FB]2 z4 | x6 | x6 | %242
 x6 | x6 | x6 | x6 | x6 | x6 | x6 | x6 | x6 | x6 | x6 | x6 | B4 z2 | B4 z2 | x6 | x6 | B4 z2 | %259
 B4 [B,^F]2 | x6 | .B2 z2 dB | dc c2 dB | dc c2 dB | dc cd ec | df f2 dB | dc c2 dB | dc c2 dB | %268
 dc cd ec | [FB]2 z4 | x6 | x6 | x6 | x6 | x6 | x6 | x6 | x6 | x6 | x6 | x6 | x6 | x6 | x6 | x6 | %285
 [DF]4 [CE]2 | x6 | x6 | x6 | x6 | x6 | x6 | x6 | x6 | x6 | x6 | x6 | x6 | x6 | x6 | x6 | x6 | x6 | %303
 x6 | x6 | x6 | x6 | x6 | x6 | x6 | x6 | x6 | x6 | x6 | x6 | x6 | x6 | x6 | x6 | x6 | x6 | x6 | %322
 x6 | x6 | x6 | x6 | x6 | x6 | x6 | x6 | x6 | F4 =E2 | E2- EC DE | F4 =E2 | E2- EC DE | x6 | x6 | %337
 x6 | x6 | [Bd]6- | x6 | x6 | x6 | x6 | x6 | x6 | x6 | x6 | x6 | x6 | x6 | x6 | x6 | x6 | x6 | x6 | %356
 x6 | x6 | x6 | x6 | x6 | x6 | x6 | x6 |[K:bass] x6 | x6 | _G,4 F,2 | x6 | x6 | x6 | z2 _G,2 F,2 | %371
 z2 z4 | x6 | x6 | x6 | x6 | x6 | x6 | x6 | x6 | x6 ||[M:4/4][K:treble] x8 | x8 | x8 | x8 | x8 | %386
 x8 | x8 ||[K:C] x8 | x8 | x8 | x8 | x8 | x8 | x8 | x8 | x8 | x8 | x8 | x8 | x8 | x8 | x8 | x8 | %404
 x8 | x8 | x8 | x8 | x8 | x8 | z4 E2 z E | E2 z2 E2 z E | E2 z2 E2 z E | E2 z2 E2 z E | E2 z2 z4 | %415
 x8 | x8 | x8 | x8 || x2[K:bass] x6 | x8 | x8 | x8 |[K:treble] x6[K:bass] x2 | x8 | x8 | x8 || %427
 DF ED C2 z2 | z2 G,2 [^F,A,]4 | x2[K:treble] x6 | x8 | x8 | x8 | x8 | E6 z2 | A,4 [A,C]4 | %436
 [^G,B,]8 | x8 | x8 | x8 | x8 | x8 | x8 | x8 | x8 | x8 | x8 | x8 | x8 | x8 | x8 | x8 | x8 | x8 | %454
 x8 | x8 | x8 | x8 | x8 | x8 | x8 | x8 | x8 | x8 | x8 | x8 | x8 | e a2 ge a2 g | e a2 ge d'2 c' | %469
 b z z2 z4 | x8 | e a2 ge a2 g | e a2 ge e'2 d' | ^c'2 z2 z4 | x8 | x8 | x8 | x8 | x8 | x8 | x8 | %481
 x8 | x8 | x8 | x8 | x8 | x8 | x8 | x8 | x8 | x8 | x8 | x8 | x8 | x8 | x8 | x8 | x8 | x8 | x8 | %500
 x8 | x8 | x8 | x8 | x8 | x8 | x8 | x8 | x8 | x8 | x8 | x8 | x8 | x8 | x8 | x8 | x8 | x8 | x8 | %519
 x8 | x8 | x8 | x8 | x8 | x8 | x8 | x8 | x8 | x8 | x8 | x8 | x8 | x8 | x8 | x8 | x8 | x8 | x8 | %538
 x8 | x8 | x8 | x8 | x8 | x8 | x8 | x8 | x8 | x8 | x8 | x8 | x8 | x8 | x8 | x8 | x8 | x8 | x8 | %557
 x8 | x8 | x2[K:bass] x6 | x8 | x8 | x8 |[K:treble] x6[K:bass] x2 | x8 | x8 | x8 | DF ED C2 z2 | %568
 z2 G,2 [^F,A,]4 | x2[K:treble] x6 | x8 | x8 | x8 | x8 | E6 z2 | A,4 [A,C]4 | [^G,B,]8 | x8 | x8 | %579
 x8 | x8 | x8 | x8 | x8 | x8 | x8 | x8 | x8 | x8 | x8 | x8 | x8 | x8 | x8 | x8 | x8 | %596
 x[K:bass] x7 | x8 | x8 | x4[K:treble] x4 | x8 | x8 | x8 | x8 | x8 | x8 | A4 [^GB]4 | A2 z2 z4 | %608
 x8 | x8 | x8 | x8 | x8 | x8 | x8 | x8 | x8 | x8 | x8 | x8 | x8 | x8 | x8 | x8 | x8 | x8 | x8 | %627
 x8 | x8 | x8 | x8 | x8 | x8 | x8 |] %634
V:5
 x8 | x8 | x8 | x8 | x8 | x8 | x8 | x8 | x8 | x8 | x8 | x8 | x8 | x8 | x8 | x8 | x8 | x8 | x8 | %19
 x8 | x8 | x8 | x8 | x8 | x8 | z4 z E, ^D,2- | D,2 E,2 z4 | x8 | x8 | z E, ^D,4 E,2 | x8 | x8 | %32
 x8 | x8 | x8 | x8 | x8 | x8 | x8 | x8 | x8 | x8 | x8 | x8 | x8 | x8 | x8 | x8 | x8 | x8 | x8 | %51
 x8 | x8 | x8 | x8 | x8 | x8 | x8 | x8 | C4 _D4 | x8 | x8 | x8 | x8 | x8 | x8 | [G,_B,]4 [B,_D]4 | %67
 [A,C]4 [G,_B,]4 | [G,_B,]4 [B,_D]4 | [A,C]4 [G,_B,]4 | x8 | x8 | x8 | x8 | x8 | x8 | x8 | x8 | %78
 x8 | x8 | x8 | x8 | x8 | x8 | x8 | x8 | x8 | x8 | x8 | x8 | x8 | x8 | x8 | x8 | x8 | x8 | x8 | %97
 x8 | x8 | x8 | x8 | x8 | x8 | x8 | x8 | x8 | x8 | x8 | x8 | x8 ||[K:F] x8 | x8 | x8 | x8 | x8 | %115
 x8 | x8 | x8 | x8 | x8 | x8 | x8 | x8 | x8 | x8 | x8 | x8 | x8 | x8 | x8 | x8 | x8 | x8 | x8 | %134
 x8 | x8 |[K:treble] x8 | x8 ||[K:C][K:bass] x8 | x8 | x8 | x8 | x8 | x8 | x8 | x8 | x8 | x8 | x8 | %149
 x8 | x8 | x8 | x8 | x8 | x8 | x8 | x8 | x8 | x8 | x8 | x8 | x8 | x8 | x8 | x8 | x8 | x8 | x8 | %168
 x8 | x8 | x8 | x8 | x8 | x8 | x8 | x8 | x8 | x8 | x8 | x8 | x8 | x8 | x8 | x8 | x8 | x8 | x8 | %187
 x8 | x8 | x8 | x8 | x8 | x8 | x8 | x8 | x8 | x8 | x8 | x8 | x8 | x8 | x8 | x8 | x8 | x8 | x8 | %206
 x8 ||[K:Bb][M:3/4] x6 | x6 | x6 | x6 | x6 | x6 | x6 | x6 | x6 | x6 | x6 | x6 | x6 | x6 | x6 | x6 | %223
 x6 | x6 | x6 | x6 | x6 | x6 | x6 | x6 | x6 | x6 | x6 | x6 | x6 | x6 | x6 | x6 | x6 | x6 | x6 | %242
 x6 | x6 | x6 | x6 | x6 | x6 | x6 | x6 | x6 | x6 | x6 | x6 | x6 | x6 | x6 | x6 | x6 | x6 | x6 | %261
 x6 | x6 | x6 | x6 | x6 | x6 | x6 | x6 | x6 | x6 | x6 | x6 | x6 | x6 | x6 | x6 | x6 | A,B, CA, C2 | %279
 x6 | =B,C DB, D2 | D2 C2 B,2 | x6 | x6 | x6 | x6 | x6 | x6 | x6 | x6 | x6 | x6 | x6 | x6 | x6 | %295
 x6 | x6 | x6 | x6 | x6 | x6 | x6 | x6 | x6 | x6 | x6 | x6 | x2[K:treble] x4 | x6 | x6 | x6 | x6 | %312
 x6 | x6 | x6 | x6 | x6 | x6 | x6 | x6 | x6 | x6 | x6 |[K:bass] x6 | x6 | x6 | x6 | x6 | x6 | x6 | %330
 x6 | F,6- | F,6 | F,6- | F,6 | x6 | x6 | x6 | ^F,2 G,2 C^C | x6 | x6 | x6 | x6 | x6 | x6 | x6 | %346
 x6 | x2[K:treble] x4 | x6 | x6 | x6 | x6 | x6 | x6 | x6 | x4[K:bass] x2 | x6 | x6 | x6 | x6 | x6 | %361
 x6 | x6 | x6 | x6 | x6 | x6 | x6 | x6 | x6 | x6 | x6 | x6 | x6 | x6 | x6 | x6 | x6 | x6 | x6 | %380
 x6 ||[M:4/4] x8 | x8 | x8 | x8 | x8 | x8 | x8 ||[K:C] x8 | x8 | x8 | x8 | x8 | x8 | x8 | x8 | x8 | %397
 x8 | x8 | x8 | x8 | x8 | x8 | x8 | x8 | x8 | x8 | x8 | x8 | x8 | x8 | x8 | x8 | x8 | x8 | x8 | %416
 x8 | x8 | x8 || x8 | x8 | x8 | x8 | x8 | x8 | x8 | x8 || x8 | x8 | x8 | x8 | x8 | x8 | x8 | x8 | %435
 x8 | x8 | x8 | x8 | x8 | x8 | x8 | x8 | x8 | x8 | x8 | x8 | x8 | x8 | x8 | x8 | x8 | x8 | x8 | %454
 x8 | x8 | x8 | x8 | x8 | x8 | x8 | D,,2 D,6- | D,4 x4 | x8 | x8 | x8 | x8 | x8 | x8 | x8 | x8 | %471
 x8 | x8 | x8 | x8 | x8 | x8 | x8 | x8 | x8 | x8 | x8 | x8 | x8 | x8 | x8 | x8 | x8 | x8 | x8 | %490
 x8 | x8 | x8 | x8 | x8 | x8 | x8 | x8 | x8 | x8 | x8 | x8 | x8 | x8 | x8 | x8 | x8 | x8 | x8 | %509
 x8 | x8 | x8 | x8 | x8 | x8 | x8 | x8 | x8 | x8 | x8 | x8 | x8 | x8 | x8 | %524
 z [_A,B,]2 [A,B,]2 [A,B,]2 [A,B,] | x8 | x8 | x8 | x8 | x8 | x8 | x8 | x8 | x8 | x8 | x8 | x8 | %537
 x8 | x8 | x8 | x8 | x8 | x8 | x8 | x8 | x8 | x8 | x8 | x8 | x8 | x8 | x8 | x8 | x8 | x8 | x8 | %556
 x8 | x8 | x8 | x8 | x8 | x8 | x8 | x8 | x8 | x8 | x8 | x8 | x8 | x8 | x8 | x8 | x8 | x8 | x8 | %575
 x8 | x8 | x8 | x8 | x8 | x8 | x8 | x8 | x8 | x8 | x8 | x8 | x8 | x8 | x8 | x8 | x8 | x8 | x8 | %594
 x8 | x8 | x8 | x8 | x8 | x8 | x8 | x8 | x8 | x8 | x8 | x8 | x8 | x8 | ^G,2 z2 z4 | %609
 ^F,2 z2 ^D,2 z2 | E,2 z2 E,2 z2 | x8 | x8 | x8 | x8 | x8 | x8 | x8 | x8 | x8 | x8 | x8 | x8 | x8 | %624
 x8 | x8 | x8 | x8 | x8 | x8 | x8 | x8 | x8 | x8 |] %634

